!!!!SEGMENT: pl-wtm--r-1544--005_stefani-jozef--msza-no-9-offertorium.krn
!!!cenid: 18xx:1797
!!!COM: Stefani, Józef
!!!COM-rismID: pe30024097
!!!CDT: 1800/04/16-1876/03/19
!!!CNT: Polish
!!!OPR: Msza No 9
!!!OTL: Offertorium
!!!OMV: 005
!!!PDT: 1846
!!!AGN: Sacred; Mass
!!!SMS-siglum: PL-Wtm
!!!SMS-shelfmark: R 1544
!!!SMS-shelfwork: 001-005 M
!!!SMS-variant:
!!!SMS-altvar:
!!!NIFC-rismSourceID: 1001120493
!!!NIFC-islandoraID: pl-wtm:26509
!!!URL-pdf-islandora: https://repozytorium.nifc.pl/islandora/object/pl-wtm%3A26509/datastream/PDF/view
!!!URL-scan: https://polish.musicsources.pl/pl/lokalizacje/galeria/rekopisy/6345 @EN{Scan on Polish Music Herritage in Open Access Website} @PL{Skany w portalu Dziedzictwo Muzyki Polskiej w otwartym dostępie}
!!!ONB-nifc: UWAGA: części Mszy: 1. Kyrie, 2. Gloria, 3. Graduale, 4. Credo, 5. Offertorium, 6. Sanctus, 7. Benedictus, 8. Agnus Dei, 9. Dona nobis
!!!AIN: 1 clars 1 cor 2 empty 1 fagot 1 flt 1 oboe 2 soprn 1 tenor 1 timpa 1 tromp 1 viola 2 violn
!!!key:
**kern	**kern	**dynam	**kern	**text	**text	**dynam	**kern	**text	**text	**dynam	**kern	**text	**text	**dynam	**kern	**text	**text	**dynam	**kern	**dynam	**kern	**dynam	**kern	**dynam	**kern	**dynam	**kern	**dynam	**kern	**dynam	**kern	**dynam	**kern	**dynam	**kern	**dynam
*part15	*part14	*part14	*part13	*part13	*part13	*part13	*part12	*part12	*part12	*part12	*part11	*part11	*part11	*part11	*part10	*part10	*part10	*part10	*part9	*part9	*part8	*part8	*part7	*part7	*part6	*part6	*part5	*part5	*part4	*part4	*part3	*part3	*part2	*part2	*part1	*part1
*staff15	*staff14	*	*staff13	*staff13	*staff13	*	*staff12	*staff12	*staff12	*	*staff11	*staff11	*staff11	*	*staff10	*staff10	*staff10	*	*staff9	*	*staff8	*	*staff7	*	*staff6	*	*staff5	*	*staff4	*	*staff3	*	*staff2	*	*staff1	*
*Itimpa	*Iempty	*	*Iempty	*	*	*	*Itenor	*	*	*	*Isoprn	*	*	*	*Isoprn	*	*	*	*Iviola	*	*Ivioln	*	*Ivioln	*	*Itromp	*	*Ifagot	*	*Icor	*	*Iclars	*	*Ioboe	*	*Iflt	*
*I"Tympani	*I"Baſsi	*	*I"Baſso	*	*	*	*I"Tenore	*	*	*	*I"Soprano 2o.	*	*	*	*I"Soprano 1o	*	*	*	*I"Viole	*	*I"Violini	*	*I"Violini	*	*I"Trombe in C	*	*I"Fagotti	*	*I"Corni in F.	*	*I"Clarinetti in C	*	*I"Oboe	*	*I"Flauto	*
*I'timp	*I'b	*	*I'B	*	*	*	*I'T	*	*	*	*I'S 2	*	*	*	*I'S 1	*	*	*	*I'vla	*	*I'vl 2	*	*I'vl 1	*	*I'tr in C	*	*I'fag	*	*I'cor	*	*I'cl in C	*	*I'ob	*	*I'fl	*
*clefF4	*clefF4	*	*clefF4	*	*	*	*clefC4	*	*	*	*clefG2	*	*	*	*clefG2	*	*	*	*clefC3	*	*clefG2	*	*clefG2	*	*clefG2	*	*clefF4	*	*clefG2	*	*clefG2	*	*clefG2	*	*clefG2	*
*	*	*	*	*	*	*	*	*	*	*	*	*	*	*	*	*	*	*	*	*	*	*	*	*	*	*	*	*	*ITrd4c7	*	*	*	*	*	*	*
*k[b-]	*k[b-]	*	*k[b-]	*	*	*	*k[b-]	*	*	*	*k[b-]	*	*	*	*k[b-]	*	*	*	*k[b-]	*	*k[b-]	*	*k[b-]	*	*k[b-]	*	*k[b-]	*	*k[b-]	*	*k[b-]	*	*k[b-]	*	*k[b-]	*
*F:	*F:	*	*F:	*	*	*	*F:	*	*	*	*F:	*	*	*	*F:	*	*	*	*F:	*	*F:	*	*F:	*	*F:	*	*F:	*	*F:	*	*F:	*	*F:	*	*F:	*
*M2/4	*M2/4	*	*M2/4	*	*	*	*M2/4	*	*	*	*M2/4	*	*	*	*M2/4	*	*	*	*M2/4	*	*M2/4	*	*M2/4	*	*M2/4	*	*M2/4	*	*M2/4	*	*M2/4	*	*M2/4	*	*M2/4	*
*	*	*	*	*	*	*	*	*	*	*	*	*	*	*	*	*	*	*	*	*	*	*	*	*	*	*	*^	*	*	*	*	*	*	*	*	*
!	!	!	!	!	!	!	!	!	!	!	!	!	!	!	!	!	!	!	!	!	!	!	!	!	!	!	!	!	!	!	!	!LO:TX:b:t=dolce	!	!	!	!	!
!	!	!	!	!	!	!	!	!	!	!	!	!	!	!	!	!	!	!	!	!	!	!	!	!	!	!	!	!	!	!	!	!LO:TX:rj:a:t=Solo	!	!	!	!LO:TX:a:t=Andantino.	!
8ryy	8r	.	8r	.	.	.	8r	.	.	.	8r	.	.	.	8r	.	.	.	8r	.	8r	.	8r	.	8r	.	24C/LL	8r	.	8r	.	24c'/LL	.	8ryy	.	8ryy	.
.	.	.	.	.	.	.	.	.	.	.	.	.	.	.	.	.	.	.	.	.	.	.	.	.	.	.	24F/	.	.	.	.	24f'/	.	.	.	.	.
.	.	.	.	.	.	.	.	.	.	.	.	.	.	.	.	.	.	.	.	.	.	.	.	.	.	.	24A/JJ	.	.	.	.	24a'/JJ	.	.	.	.	.
=1	=1	=1	=1	=1	=1	=1	=1	=1	=1	=1	=1	=1	=1	=1	=1	=1	=1	=1	=1	=1	=1	=1	=1	=1	=1	=1	=1	=1	=1	=1	=1	=1	=1	=1	=1	=1	=1
!	!	!LO:DY:b	!	!	!	!	!	!	!	!	!	!	!	!	!	!	!	!	!	!	!	!	!	!	!	!	!	!	!	!	!	!	!	!	!	!	!
2ryy	8FF/	p	2r	.	.	.	2r	.	.	.	2r	.	.	.	2r	.	.	.	8r	.	8r	.	8r	.	2r	.	4c/	2r	.	2r	.	4cc/	.	2ryy	.	2ryy	.
.	8r	.	.	.	.	.	.	.	.	.	.	.	.	.	.	.	.	.	8c/	p	8f/	p	8a/	p	.	.	.	.	.	.	.	.	.	.	.	.	.
.	8AA/	.	.	.	.	.	.	.	.	.	.	.	.	.	.	.	.	.	8r	.	8r	.	8r	.	.	.	4f/	.	.	.	.	4ff/	.	.	.	.	.
.	8r	.	.	.	.	.	.	.	.	.	.	.	.	.	.	.	.	.	8c/	.	8f/	.	8cc\	.	.	.	.	.	.	.	.	.	.	.	.	.	.
=2	=2	=2	=2	=2	=2	=2	=2	=2	=2	=2	=2	=2	=2	=2	=2	=2	=2	=2	=2	=2	=2	=2	=2	=2	=2	=2	=2	=2	=2	=2	=2	=2	=2	=2	=2	=2	=2
2ryy	8BB-/	.	2r	.	.	.	2r	.	.	.	2r	.	.	.	2r	.	.	.	8r	.	8r	.	8r	.	2r	.	4G/	2r	.	2r	.	4g/	.	2ryy	.	2ryy	.
.	8r	.	.	.	.	.	.	.	.	.	.	.	.	.	.	.	.	.	8d\	.	8f/	.	8g/	.	.	.	.	.	.	.	.	.	.	.	.	.	.
.	8BBn^/	.	.	.	.	.	.	.	.	.	.	.	.	.	.	.	.	.	8r	.	8r	.	8r	.	.	.	4d/	.	.	.	.	4dd/	.	.	.	.	.
.	8r	.	.	.	.	.	.	.	.	.	.	.	.	.	.	.	.	.	8d^<\	.	8f^/	.	8a-X^/	.	.	.	.	.	.	.	.	.	.	.	.	.	.
=3	=3	=3	=3	=3	=3	=3	=3	=3	=3	=3	=3	=3	=3	=3	=3	=3	=3	=3	=3	=3	=3	=3	=3	=3	=3	=3	=3	=3	=3	=3	=3	=3	=3	=3	=3	=3	=3
*	*	*	*	*	*	*	*	*	*	*	*	*	*	*	*	*	*	*	*	*	*	*	*	*	*	*	*	*	*	*^	*	*	*	*	*	*	*
!	!	!	!	!	!	!	!	!	!	!	!	!	!	!	!	!	!	!	!	!	!	!	!	!	!	!	!	!	!	!	!	!LO:DY:a	!	!	!	!	!	!
2ryy	8C/	.	2r	.	.	.	2r	.	.	.	2r	.	.	.	2r	.	.	.	8r	.	8r	.	8r	.	2r	.	4c/	4r	.	4r	4ryy	p	4cc/	.	2ryy	.	2ryy	.
.	8r	.	.	.	.	.	.	.	.	.	.	.	.	.	.	.	.	.	8c\	.	8f/	.	8an/	.	.	.	.	.	.	.	.	.	.	.	.	.	.	.
.	8C#X/	.	.	.	.	.	.	.	.	.	.	.	.	.	.	.	.	.	8r	.	8r	.	8r	.	.	.	4B-/	(4C#X\	.	4g/	4e\	.	(4b-T/	.	.	.	.	.
.	8ryy	.	.	.	.	.	.	.	.	.	.	.	.	.	.	.	.	.	8e\ 8c#X\	.	8g/	.	8b-/	.	.	.	.	.	.	.	.	.	.	.	.	.	.	.
.	.	.	.	.	.	.	.	.	.	.	.	.	.	.	.	.	.	.	.	.	.	.	.	.	.	.	16qqA/LL	.	.	.	.	.	16qqa/LL	.	.	.	.	.
.	.	.	.	.	.	.	.	.	.	.	.	.	.	.	.	.	.	.	.	.	.	.	.	.	.	.	16qqB-/JJ	.	.	.	.	.	16qqb-/JJ)	.	.	.	.	.
=4	=4	=4	=4	=4	=4	=4	=4	=4	=4	=4	=4	=4	=4	=4	=4	=4	=4	=4	=4	=4	=4	=4	=4	=4	=4	=4	=4	=4	=4	=4	=4	=4	=4	=4	=4	=4	=4	=4
2ryy	8D/	.	2r	.	.	.	2r	.	.	.	2r	.	.	.	2r	.	.	.	8r	.	8r	.	8r	.	2r	.	4A/	4D\)	.	4f/	4f\	.	4a/	.	2ryy	.	2ryy	.
.	8r	.	.	.	.	.	.	.	.	.	.	.	.	.	.	.	.	.	8f\ 8d\	.	8f/	.	8a/	.	.	.	.	.	.	.	.	.	.	.	.	.	.	.
.	8F\	.	.	.	.	.	.	.	.	.	.	.	.	.	.	.	.	.	8r	.	8r	.	8r	.	.	.	8r	4rGG	.	4r	4ryy	.	8r	.	.	.	.	.
!	!	!	!	!	!	!	!	!	!	!	!	!	!	!	!	!	!	!	!LO:TX:a:t=c	!	!	!	!	!	!	!	!	!	!	!	!	!	!	!	!	!	!	!
.	8r	.	.	.	.	.	.	.	.	.	.	.	.	.	.	.	.	.	8c\	.	8f/	.	8a/	.	.	.	24C/LL	.	.	.	.	.	24c'/LL	.	.	.	.	.
.	.	.	.	.	.	.	.	.	.	.	.	.	.	.	.	.	.	.	.	.	.	.	.	.	.	.	24F/	.	.	.	.	.	24f'/	.	.	.	.	.
.	.	.	.	.	.	.	.	.	.	.	.	.	.	.	.	.	.	.	.	.	.	.	.	.	.	.	24A/JJ	.	.	.	.	.	24a'/JJ	.	.	.	.	.
*	*	*	*	*	*	*	*	*	*	*	*	*	*	*	*	*	*	*	*	*	*	*	*	*	*	*	*	*	*	*v	*v	*	*	*	*	*	*	*
=5	=5	=5	=5	=5	=5	=5	=5	=5	=5	=5	=5	=5	=5	=5	=5	=5	=5	=5	=5	=5	=5	=5	=5	=5	=5	=5	=5	=5	=5	=5	=5	=5	=5	=5	=5	=5	=5
*	*	*	*	*	*	*	*	*	*	*	*	*	*	*	*	*	*	*	*	*	*rep	*	*	*	*	*	*	*	*	*	*	*	*	*	*	*	*
2ryy	8FF/	.	2r	.	.	.	2r	.	.	.	2r	.	.	.	2r	.	.	.	8r	.	8r	.	8r	.	2r	.	4c/	2r	.	2r	.	4cc/	.	2ryy	.	2ryy	.
.	8r	.	.	.	.	.	.	.	.	.	.	.	.	.	.	.	.	.	8c\	.	8f/	.	8cc\	.	.	.	.	.	.	.	.	.	.	.	.	.	.
.	8AA/	.	.	.	.	.	.	.	.	.	.	.	.	.	.	.	.	.	8r	.	8r	.	8r	.	.	.	4f/	.	.	.	.	8.gg/L	.	.	.	.	.
.	8r	.	.	.	.	.	.	.	.	.	.	.	.	.	.	.	.	.	8c\	.	8f/	.	8cc\	.	.	.	.	.	.	.	.	.	.	.	.	.	.
.	.	.	.	.	.	.	.	.	.	.	.	.	.	.	.	.	.	.	.	.	.	.	.	.	.	.	.	.	.	.	.	16ff/Jk	.	.	.	.	.
*	*	*	*	*	*	*	*	*	*	*	*	*	*	*	*	*	*	*	*	*	*Xrep	*	*	*	*	*	*	*	*	*	*	*	*	*	*	*	*
=6	=6	=6	=6	=6	=6	=6	=6	=6	=6	=6	=6	=6	=6	=6	=6	=6	=6	=6	=6	=6	=6	=6	=6	=6	=6	=6	=6	=6	=6	=6	=6	=6	=6	=6	=6	=6	=6
*	*	*	*	*	*	*	*	*	*	*	*	*	*	*	*	*	*	*	*	*	*	*	*	*	*	*	*	*	*	*^	*	*	*	*	*	*	*
2ryy	8BB-/	.	2r	.	.	.	2r	.	.	.	2r	.	.	.	2r	.	.	.	8r	.	8r	.	8r	.	4r	.	[8G/L	4r	.	4r	4ryy	.	([>8g/L	.	2ryy	.	2ryy	.
.	8r	.	.	.	.	.	.	.	.	.	.	.	.	.	.	.	.	.	8d\	.	8f/	.	8g/	.	.	.	(<32G/LL]	.	.	.	.	.	32g/LL]	.	.	.	.	.
.	.	.	.	.	.	.	.	.	.	.	.	.	.	.	.	.	.	.	.	.	.	.	.	.	.	.	32A/	.	.	.	.	.	32a/	.	.	.	.	.
.	.	.	.	.	.	.	.	.	.	.	.	.	.	.	.	.	.	.	.	.	.	.	.	.	.	.	32B-/	.	.	.	.	.	32b-/	.	.	.	.	.
.	.	.	.	.	.	.	.	.	.	.	.	.	.	.	.	.	.	.	.	.	.	.	.	.	.	.	32c/JJJ)	.	.	.	.	.	32cc/JJJ	.	.	.	.	.
.	8BBn^/	.	.	.	.	.	.	.	.	.	.	.	.	.	.	.	.	.	8r	.	8r	.	8r	.	4d/	.	4d/	4BBn^\	.	4a-X/	4f\	.	4dd/)	.	.	.	.	.
.	8r	.	.	.	.	.	.	.	.	.	.	.	.	.	.	.	.	.	8d^<\	.	8f^/	.	8a-X^/	.	.	.	.	.	.	.	.	.	.	.	.	.	.	.
*	*	*	*	*	*	*	*	*	*	*	*	*	*	*	*	*	*	*	*	*	*	*	*	*	*	*	*	*	*	*v	*v	*	*	*	*	*	*	*
!!LO:LB:g=original
=7	=7	=7	=7	=7	=7	=7	=7	=7	=7	=7	=7	=7	=7	=7	=7	=7	=7	=7	=7	=7	=7	=7	=7	=7	=7	=7	=7	=7	=7	=7	=7	=7	=7	=7	=7	=7	=7
*	*	*	*	*	*	*	*	*	*	*	*	*	*	*	*	*	*	*	*	*	*	*	*	*	*	*	*	*	*	*	*	*^	*	*	*	*	*
2ryy	8C/	.	2r	.	.	.	2r	.	.	.	2r	.	.	.	2r	.	.	.	8r	.	8r	.	8r	.	2r	.	(4c/	4C\	.	4a\ 4f\	.	16cc/LL|	2r	.	2r	.	2r	.
.	.	.	.	.	.	.	.	.	.	.	.	.	.	.	.	.	.	.	.	.	.	.	.	.	.	.	.	.	.	.	.	(16ccc/	.	.	.	.	.	.
.	8r	.	.	.	.	.	.	.	.	.	.	.	.	.	.	.	.	.	8c\	.	8f/	.	8an/	.	.	.	.	.	.	.	.	16aa/)	.	.	.	.	.	.
.	.	.	.	.	.	.	.	.	.	.	.	.	.	.	.	.	.	.	.	.	.	.	.	.	.	.	.	.	.	.	.	16ff/JJ	.	.	.	.	.	.
.	8C/	.	.	.	.	.	.	.	.	.	.	.	.	.	.	.	.	.	8r	.	8r	.	8r	.	.	.	4C/	4r	.	4g/ 4c/	.	(16dd/LL	.	.	.	.	.	.
.	.	.	.	.	.	.	.	.	.	.	.	.	.	.	.	.	.	.	.	.	.	.	.	.	.	.	.	.	.	.	.	16cc/	.	.	.	.	.	.
.	8r	.	.	.	.	.	.	.	.	.	.	.	.	.	.	.	.	.	8c\	.	8B-X/	.	8e/ 8G/	.	.	.	.	.	.	.	.	16b-X/	.	.	.	.	.	.
.	.	.	.	.	.	.	.	.	.	.	.	.	.	.	.	.	.	.	.	.	.	.	.	.	.	.	.	.	.	.	.	16g/JJ)	.	.	.	.	.	.
=8	=8	=8	=8	=8	=8	=8	=8	=8	=8	=8	=8	=8	=8	=8	=8	=8	=8	=8	=8	=8	=8	=8	=8	=8	=8	=8	=8	=8	=8	=8	=8	=8	=8	=8	=8	=8	=8	=8
*	*	*	*	*	*	*	*	*	*	*	*	*	*	*	*	*	*	*	*	*	*	*	*	*	*	*	*	*	*	*^	*	*	*	*	*	*	*	*
2ryy	8F\	.	2r	.	.	.	2r	.	.	.	2r	.	.	.	2r	.	.	.	8c\	.	8A/	.	8f/ 8A/	.	2r	.	8F/)	4r	.	8f/ 8A/	8ryy	.	8f/L	4r	.	4r	.	8r	.
.	8r	.	.	.	.	.	.	.	.	.	.	.	.	.	.	.	.	.	8r	.	8r	.	8r	.	.	.	8r	.	.	8r	8ryy	.	(<32e/LL	.	.	.	.	(32ee\LLL	.
.	.	.	.	.	.	.	.	.	.	.	.	.	.	.	.	.	.	.	.	.	.	.	.	.	.	.	.	.	.	.	.	.	32f/	.	.	.	.	32ff\	.
.	.	.	.	.	.	.	.	.	.	.	.	.	.	.	.	.	.	.	.	.	.	.	.	.	.	.	.	.	.	.	.	.	32a/	.	.	.	.	32aa\	.
.	.	.	.	.	.	.	.	.	.	.	.	.	.	.	.	.	.	.	.	.	.	.	.	.	.	.	.	.	.	.	.	.	32cc/JJJ	.	.	.	.	32ccc\JJJ	.
!	!	!LO:DY:b	!	!	!	!	!	!	!	!	!	!	!	!	!	!	!	!	!	!	!	!	!	!	!	!	!	!	!LO:DY:a	!	!	!	!	!	!	!	!LO:DY:a	!	!
.	.	mf	.	.	.	.	.	.	.	.	.	.	.	.	.	.	.	.	.	f	.	.	.	f	.	.	.	.	.	.	.	.	.	.	.	.	f	.	.
.	8F'\L	.	.	.	.	.	.	.	.	.	.	.	.	.	.	.	.	.	8f'\L	.	8c/L	.	8f/L 8A'/	.	.	.	8F/	8F\L	f	8a/L	8f\L	.	8ff/L)	8ryy	.	(4ff\	.	8fff\L)	.
.	8D'\J	.	.	.	.	.	.	.	.	.	.	.	.	.	.	.	.	.	8d'\J	.	8Bn/J	.	8f/J 8G'/	.	.	.	8D/	8D\J	.	8g/J	8g\J	.	8bnt/J	8f\	.	.	.	8bbnt\J	.
.	.	.	.	.	.	.	.	.	.	.	.	.	.	.	.	.	.	.	.	.	.	.	.	.	.	.	.	.	.	.	.	.	16qqa/LL	.	.	.	.	16qqaa/LL	.
.	.	.	.	.	.	.	.	.	.	.	.	.	.	.	.	.	.	.	.	.	.	.	.	.	.	.	.	.	.	.	.	.	16qqb/JJ	.	.	.	.	16qqbb/JJ	.
*	*	*	*	*	*	*	*	*	*	*	*	*	*	*	*	*	*	*	*	*	*	*	*	*	*	*	*	*	*	*v	*v	*	*	*	*	*	*	*	*
=9	=9	=9	=9	=9	=9	=9	=9	=9	=9	=9	=9	=9	=9	=9	=9	=9	=9	=9	=9	=9	=9	=9	=9	=9	=9	=9	=9	=9	=9	=9	=9	=9	=9	=9	=9	=9	=9	=9
!	!	!	!	!	!	!	!	!	!	!	!	!	!	!	!	!	!	!	!	!	!	!	!	!	!LO:N:vis=8	!	!LO:TX:a:t=Io	!	!LO:DY:a	!	!	!	!	!	!	!	!	!
2ryy	8C/	.	2r	.	.	.	2r	.	.	.	2r	.	.	.	2r	.	.	.	8c\	.	8c/	.	8e/ 8G/	.	4r	.	[<2C/	8C\	fp	8g/ 8c/	.	8cc/	8e\	.	8ee\)	.	8ccc\	.
.	8r	.	.	.	.	.	.	.	.	.	.	.	.	.	.	.	.	.	8r	.	8r	.	8r	.	.	.	.	8r	.	8r	.	8r	8ryy	.	8r	.	8r	.
.	4r	.	.	.	.	.	.	.	.	.	.	.	.	.	.	.	.	.	4r	.	4r	.	4r	.	(16b-X/LL 16g/	.	.	4r	.	4r	.	(16b-/LL 16g/	4ryy	.	4r	.	4r	.
.	.	.	.	.	.	.	.	.	.	.	.	.	.	.	.	.	.	.	.	.	.	.	.	.	16a/ 16f/)	.	.	.	.	.	.	16a/ 16f/)	.	.	.	.	.	.
.	.	.	.	.	.	.	.	.	.	.	.	.	.	.	.	.	.	.	.	.	.	.	.	.	(16a/ 16f/	.	.	.	.	.	.	(16a/ 16f/	.	.	.	.	.	.
.	.	.	.	.	.	.	.	.	.	.	.	.	.	.	.	.	.	.	.	.	.	.	.	.	16g/JJ 16e/)	.	.	.	.	.	.	16g/JJ 16e/)	.	.	.	.	.	.
*	*	*	*	*	*	*	*	*	*	*	*	*	*	*	*	*	*	*	*	*	*	*	*	*	*	*	*	*	*	*	*	*v	*v	*	*	*	*	*
=10	=10	=10	=10	=10	=10	=10	=10	=10	=10	=10	=10	=10	=10	=10	=10	=10	=10	=10	=10	=10	=10	=10	=10	=10	=10	=10	=10	=10	=10	=10	=10	=10	=10	=10	=10	=10	=10
2ryy	2r	.	2r	.	.	.	2r	.	.	.	2r	.	.	.	2r	.	.	.	2r	.	2r	.	2r	.	(8.dd/L 8.b-/	.	2C/]	2r	.	2r	.	(8.dd/L 8.b-/	.	2r	.	2r	.
.	.	.	.	.	.	.	.	.	.	.	.	.	.	.	.	.	.	.	.	.	.	.	.	.	16cc/Jk 16a/	.	.	.	.	.	.	16cc/Jk 16a/	.	.	.	.	.
.	.	.	.	.	.	.	.	.	.	.	.	.	.	.	.	.	.	.	.	.	.	.	.	.	16bn/LL 16g#X/	.	.	.	.	.	.	16bn/LL 16g#X/	.	.	.	.	.
.	.	.	.	.	.	.	.	.	.	.	.	.	.	.	.	.	.	.	.	.	.	.	.	.	16cc/ 16a/	.	.	.	.	.	.	16cc/ 16a/	.	.	.	.	.
.	.	.	.	.	.	.	.	.	.	.	.	.	.	.	.	.	.	.	.	.	.	.	.	.	16b-X/ 16gn/	.	.	.	.	.	.	16b-X/ 16gn/	.	.	.	.	.
.	.	.	.	.	.	.	.	.	.	.	.	.	.	.	.	.	.	.	.	.	.	.	.	.	16g/JJ 16c/)	.	.	.	.	.	.	16g/JJ 16c/)	.	.	.	.	.
*	*	*	*	*	*	*	*	*	*	*	*	*	*	*	*	*	*	*	*	*	*	*	*	*	*	*	*v	*v	*	*	*	*	*	*	*	*	*
=11	=11	=11	=11	=11	=11	=11	=11	=11	=11	=11	=11	=11	=11	=11	=11	=11	=11	=11	=11	=11	=11	=11	=11	=11	=11	=11	=11	=11	=11	=11	=11	=11	=11	=11	=11	=11
*	*	*	*	*	*	*	*	*	*	*	*	*	*	*	*	*	*	*	*	*	*	*	*	*	*	*	*	*	*	*	*^	*	*	*	*	*
*	*	*	*	*	*	*	*	*	*	*	*	*	*	*	*	*	*	*	*	*	*	*	*	*	*	*	*	*	*	*	*	*2\right	*	*2\right	*	*	*
!	!	!LO:DY:rj:a	!	!	!	!	!	!	!	!	!	!	!	!	!	!	!	!LO:DY:rj:a	!	!	!	!	!	!	!	!	!	!	!	!	!	!	!LO:DY:rj	!	!LO:DY:rj	!	!LO:DY:rj
2ryy	8F\	p	4F\	.	.	.	4c\	.	.	.	4a/	.	.	.	4cc\	Przyi-	.	mf	8r	.	8r	p	8r	.	2r	.	2r	.	2r	.	2cc/	[2f\	p	2aa\	p	(4ccc\	p
.	.	.	.	.	.	.	.	.	.	.	.	.	.	.	.	.	.	.	.	.	.	.	.	p	.	.	.	.	.	.	.	.	.	.	.	.	.
.	8r	.	.	.	.	.	.	.	.	.	.	.	.	.	.	.	.	.	8f\	.	8c/	.	8a/	.	.	.	.	.	.	.	.	.	.	.	.	.	.
.	8F\	.	4F\	.	.	.	4c\	.	.	.	4a/	.	.	.	4ff\	-miy	.	.	8r	.	8r	.	8r	.	.	.	.	.	.	.	.	.	.	.	.	4fff\	.
.	8r	.	.	.	.	.	.	.	.	.	.	.	.	.	.	.	.	.	8f\	.	8c/	.	8a/	.	.	.	.	.	.	.	.	.	.	.	.	.	.
=12	=12	=12	=12	=12	=12	=12	=12	=12	=12	=12	=12	=12	=12	=12	=12	=12	=12	=12	=12	=12	=12	=12	=12	=12	=12	=12	=12	=12	=12	=12	=12	=12	=12	=12	=12	=12	=12
*	*rep	*	*	*	*	*	*	*	*	*	*	*	*	*	*	*	*	*	*	*	*	*	*	*	*	*	*	*	*	*	*	*	*	*	*	*	*
2ryy	8F\	.	4F\	.	.	.	4d\ 4B-\	.	.	.	4b-/	.	.	.	4dd\	Bo-	.	.	8r	.	8r	.	8r	.	2r	.	2r	.	2r	.	4dd/	2f\_	.	4bb-\	.	4ddd\	.
.	8r	.	.	.	.	.	.	.	.	.	.	.	.	.	.	.	.	.	8f\	.	8d/	.	8b-/	.	.	.	.	.	.	.	.	.	.	.	.	.	.
.	8F\	.	4F\	.	.	.	4c\	.	.	.	4a/	.	.	.	4cc\	-że	.	.	8r	.	8r	.	8r	.	.	.	.	.	.	.	4cc/	.	.	4aa\	.	4ccc\)	.
.	8r	.	.	.	.	.	.	.	.	.	.	.	.	.	.	.	.	.	8f\	.	8c/	.	8a/	.	.	.	.	.	.	.	.	.	.	.	.	.	.
*	*Xrep	*	*	*	*	*	*	*	*	*	*	*	*	*	*	*	*	*	*	*	*	*	*	*	*	*	*	*	*	*	*	*	*	*	*	*	*
!!LO:PB:g=original
=13	=13	=13	=13	=13	=13	=13	=13	=13	=13	=13	=13	=13	=13	=13	=13	=13	=13	=13	=13	=13	=13	=13	=13	=13	=13	=13	=13	=13	=13	=13	=13	=13	=13	=13	=13	=13	=13
!	!	!	!	!	!	!	!	!	!	!	!	!	!	!	!	!	!	!	!	!	!	!	!	!	!	!	!	!	!	!	!	!LO:TX:t=P:problem=brak początku łuku	!	!	!	!	!
2ryy	8F\L	.	(8F\L	.	.	.	4.c\	.	.	.	4.g/	.	.	.	4.b-\	tę	.	.	8r	.	8r	.	8r	.	2r	.	2r	.	2r	.	[2cc/	8f\L]	.	2gg\	.	(4.bb-\	.
.	16E\L	.	16E\L	.	.	.	.	.	.	.	.	.	.	.	.	.	.	.	8c/	.	8g/	.	8b-\	.	.	.	.	.	.	.	.	16e\L	.	.	.	.	.
.	16D\JJ	.	16D\JJ	.	.	.	.	.	.	.	.	.	.	.	.	.	.	.	.	.	.	.	.	.	.	.	.	.	.	.	.	16d\JJ	.	.	.	.	.
.	8E\	.	8E\)	.	.	.	.	.	.	.	.	.	.	.	.	.	.	.	8r	.	8r	.	8r	.	.	.	.	.	.	.	.	4e\	.	.	.	.	.
.	8r	.	8E\	.	.	.	8c\	.	.	.	8g/	.	.	.	8cc\	o-	.	.	8c/	.	8g/	.	8cc\	.	.	.	.	.	.	.	.	.	.	.	.	8ccc\)	.
=14	=14	=14	=14	=14	=14	=14	=14	=14	=14	=14	=14	=14	=14	=14	=14	=14	=14	=14	=14	=14	=14	=14	=14	=14	=14	=14	=14	=14	=14	=14	=14	=14	=14	=14	=14	=14	=14
*	*	*	*	*	*	*	*	*	*	*	*	*	*	*	*	*	*	*	*	*	*	*	*	*	*	*	*	*	*^	*	*	*	*	*	*	*	*
2ryy	8F\	.	4F\	.	.	.	4c\	.	.	.	4f/	.	.	.	4a/	-fia-	.	.	8r	.	8r	.	8r	.	2r	.	2r	.	4a/	4f\	p	2cc/]	4f\	.	(4ff\	.	(4aa\	.
.	8r	.	.	.	.	.	.	.	.	.	.	.	.	.	.	.	.	.	8c\	.	8f/	.	8a/	.	.	.	.	.	.	.	.	.	.	.	.	.	.	.
.	8C\	.	4C\	.	.	.	4c\	.	.	.	4e/	.	.	.	4g/	-rę	.	.	8r	.	8r	.	8r	.	.	.	.	.	4g/ 4c/	4ryy	.	.	4e\	.	4ee\)	.	4gg\)	.
.	8r	.	.	.	.	.	.	.	.	.	.	.	.	.	.	.	.	.	8c\	.	8e/	.	8g/	.	.	.	.	.	.	.	.	.	.	.	.	.	.	.
*	*	*	*	*	*	*	*	*	*	*	*	*	*	*	*	*	*	*	*	*	*	*	*	*	*	*	*	*	*v	*v	*	*	*	*	*	*	*	*
=15	=15	=15	=15	=15	=15	=15	=15	=15	=15	=15	=15	=15	=15	=15	=15	=15	=15	=15	=15	=15	=15	=15	=15	=15	=15	=15	=15	=15	=15	=15	=15	=15	=15	=15	=15	=15	=15
!	!	!	!	!	!	!	!	!	!	!	!	!	!	!	!	!	!	!	!	!	!	!	!	!	!	!	!	!LO:DY:rj	!	!	!	!	!	!	!	!	!
2ryy	8D\	.	4D\	.	.	.	4A\	.	.	.	4d/	.	.	.	4f/	któ-	.	.	8r	.	8r	.	8r	.	2r	.	4D\	p	4f/ 4A/	.	4a/	4f\	.	4dd\	.	4ff\	.
.	8r	.	.	.	.	.	.	.	.	.	.	.	.	.	.	.	.	.	8d\ 8A\	.	8d/	.	8f/	.	.	.	.	.	.	.	.	.	.	.	.	.	.
.	8C\	.	4C\	.	.	.	4c\	.	.	.	4e/	.	.	.	4g/	-rą	.	.	8r	.	8r	.	8r	.	.	.	4C\	.	4g/ 4c/	.	4cc/	4e\	.	4ee\	.	4gg\	.
.	8r	.	.	.	.	.	.	.	.	.	.	.	.	.	.	.	.	.	8c\	.	8e/	.	8g/	.	.	.	.	.	.	.	.	.	.	.	.	.	.
=16	=16	=16	=16	=16	=16	=16	=16	=16	=16	=16	=16	=16	=16	=16	=16	=16	=16	=16	=16	=16	=16	=16	=16	=16	=16	=16	=16	=16	=16	=16	=16	=16	=16	=16	=16	=16	=16
*	*	*	*	*	*	*	*	*	*	*	*	*	*	*	*	*	*	*	*	*	*	*	*	*	*^	*	*	*	*^	*	*	*	*	*	*	*	*
*	*	*below	*	*	*	*	*	*	*	*	*	*	*	*	*	*	*	*	*	*	*	*	*	*	*	*	*	*	*	*	*	*	*	*	*	*	*	*	*
!	!	!LO:DY:rj	!	!	!	!	!	!	!	!	!	!	!	!	!	!	!	!	!	!	!	!	!	!	!	!	!	!	!	!	!	!	!	!	!	!	!	!	!
2ryy	8.F\L|	mf	8.F\	.	.	.	8.c\	.	.	.	8.f/	.	.	.	8.a/	za	.	.	8.r	.	8.r	mf	8.r	mf	8.a/L	8.r	.	8.F\L	.	8.a/L	4f\	mf	[2cc/	4f\	.	4ff\	mf	8.aa\L|	mf
.	16A\K|	.	16A\	.	.	.	16c\	.	.	.	16f/	.	.	.	16cc/	nas	.	.	16c\	.	16f/KL|	.	16cc/KL|	.	16cc/K	16c\	.	16A\K	.	16cc/K	.	.	.	.	.	.	.	16ccc\K|	.
.	8G\|	.	8G\	.	.	.	8c\	.	.	.	8e/	.	.	.	8b-/	ka-	.	.	[4c\	.	8e'/	.	8b-'/	.	8b-X/	4c\	.	8G\	.	8b-/	8g\L	.	.	8e\L	.	8ee\L	.	8bb-\|	.
.	8F\J|	.	8F\	.	.	.	8c\	.	.	.	8f/	.	.	.	8a/	-płan	.	.	.	.	8f'/J	.	8a'/J	.	8a/J	.	.	8F\J	.	8a/J	8f\J	.	.	8f\J	.	8ff\J	.	8aa\J|	.
*	*	*	*	*	*	*	*	*	*	*	*	*	*	*	*	*	*	*	*	*	*	*	*	*	*v	*v	*	*	*	*	*	*	*	*	*	*	*	*	*
=17	=17	=17	=17	=17	=17	=17	=17	=17	=17	=17	=17	=17	=17	=17	=17	=17	=17	=17	=17	=17	=17	=17	=17	=17	=17	=17	=17	=17	=17	=17	=17	=17	=17	=17	=17	=17	=17	=17
2ryy	8C/	.	4C/	.	.	.	4c\	.	.	.	(8.e/L	.	.	.	(8.g/L	świę-	.	.	4.c\]	.	(8.e/L	.	(8.g/L	.	8.g/L 8.e/	.	4.C/	.	8.g/L	4.c\	.	4.cc/]	8.e\L	.	8.ee\L	.	8.gg\L	.
.	8r	.	.	.	.	.	.	.	.	.	.	.	.	.	.	.	.	.	.	.	.	.	.	.	.	.	.	.	.	.	.	.	.	.	.	.	.	.
.	.	.	.	.	.	.	.	.	.	.	16d#X/Jk)	.	.	.	16f#X/Jk)	.	.	.	.	.	16d#X/Jk	.	16f#X/Jk	.	16f#X/Jk 16d#X/	.	.	.	16f#X/Jk	.	.	.	16d#X\Jk	.	16dd#X\Jk	.	16ff#X\Jk	.
.	8C/	.	8C/	.	.	.	8c\	.	.	.	8e/	.	.	.	8g/	-ci	.	.	.	.	8e/)	.	8g/)	.	8g/ 8e/	.	.	.	8g/	.	.	.	8e\	.	8ee\	.	8gg\	.
!	!	!	!	!	!	!	!	!	!	!	!	!	!	!	!	!	!	!	!	!	!	!	!	!	!	!	!	!	!	!	!	!	!	!	!	!	!LO:TUP:a	!
.	8r	.	8r	.	.	.	8r	.	.	.	8r	.	.	.	8r	.	.	.	8r	.	8r	.	8r	.	8r	.	8r	.	8r	8r	.	24c'/LL	8r	.	8r	.	24cc'\LL	.
.	.	.	.	.	.	.	.	.	.	.	.	.	.	.	.	.	.	.	.	.	.	.	.	.	.	.	.	.	.	.	.	24f'/	.	.	.	.	24ff#'\	.
.	.	.	.	.	.	.	.	.	.	.	.	.	.	.	.	.	.	.	.	.	.	.	.	.	.	.	.	.	.	.	.	24a'/JJ	.	.	.	.	24aa'\JJ	.
*	*	*	*	*	*	*	*	*	*	*	*	*	*	*	*	*	*	*	*	*	*	*	*	*	*	*	*	*	*v	*v	*	*	*	*	*	*	*	*
=18	=18	=18	=18	=18	=18	=18	=18	=18	=18	=18	=18	=18	=18	=18	=18	=18	=18	=18	=18	=18	=18	=18	=18	=18	=18	=18	=18	=18	=18	=18	=18	=18	=18	=18	=18	=18	=18
!	!	!LO:DY:rj	!	!	!	!	!	!	!	!	!	!	!	!	!	!	!	!	!	!	!	!	!	!	!	!	!	!	!	!	!	!	!	!	!	!	!
2ryy	8F\	p	4F\	.	.	.	4c\	.	.	.	4a/	.	.	.	4cc\	W Zma-	.	.	8r	.	8r	.	8r	.	2r	.	2r	.	2r	.	2cc/	2f\	.	2aa\	.	(4ccc\	p
.	8r	.	.	.	.	.	.	.	.	.	.	.	.	.	.	.	.	.	8f\	.	8c/	.	8a/	p	.	.	.	.	.	.	.	.	.	.	.	.	.
.	8F\	.	4F\	.	.	.	4c\	.	.	.	4a/	.	.	.	4ff\	-cniay	.	.	8r	.	8r	.	8r	.	.	.	.	.	.	.	.	.	.	.	.	4fff\)	.
.	8r	.	.	.	.	.	.	.	.	.	.	.	.	.	.	.	.	.	8f\	.	8c/	.	8a/	.	.	.	.	.	.	.	.	.	.	.	.	.	.
!!LO:LB:g=original
=19	=19	=19	=19	=19	=19	=19	=19	=19	=19	=19	=19	=19	=19	=19	=19	=19	=19	=19	=19	=19	=19	=19	=19	=19	=19	=19	=19	=19	=19	=19	=19	=19	=19	=19	=19	=19	=19
2ryy	8F\	.	4F\	.	.	.	4d\ 4B-\	.	.	.	4b-/	.	.	.	4dd\	wie-	.	.	8r	.	8r	.	8r	.	2r	.	2r	.	2r	.	(4dd/	2f\	.	(4bb-\	.	(4ddd\	.
.	8r	.	.	.	.	.	.	.	.	.	.	.	.	.	.	.	.	.	8f\	.	8d/	.	8b-/	.	.	.	.	.	.	.	.	.	.	.	.	.	.
.	8F\	.	4F\	.	.	.	4c\	.	.	.	4a/	.	.	.	4cc\	-cznie	.	.	8r	.	8r	.	8r	.	.	.	.	.	.	.	[4cc/)	.	.	4aa\)	.	4ccc\)	.
.	8r	.	.	.	.	.	.	.	.	.	.	.	.	.	.	.	.	.	8f\	.	8c/	.	8a/	.	.	.	.	.	.	.	.	.	.	.	.	.	.
=20	=20	=20	=20	=20	=20	=20	=20	=20	=20	=20	=20	=20	=20	=20	=20	=20	=20	=20	=20	=20	=20	=20	=20	=20	=20	=20	=20	=20	=20	=20	=20	=20	=20	=20	=20	=20	=20
2ryy	(8F\L	.	(8F\L	.	.	.	4.c\	.	.	.	4.g/	.	.	.	4.b-\	na-	.	.	8r	.	8r	.	8r	.	2r	.	2r	.	2r	.	2cc/]	8f\L	.	2gg\	.	4.bb-\	.
.	16E\L	.	16E\L	.	.	.	.	.	.	.	.	.	.	.	.	.	.	.	8g\	.	8c/	.	8b-/	.	.	.	.	.	.	.	.	16e\L	.	.	.	.	.
.	16D\JJ	.	16D\JJ)	.	.	.	.	.	.	.	.	.	.	.	.	.	.	.	.	.	.	.	.	.	.	.	.	.	.	.	.	16d\JJ	.	.	.	.	.
.	8E\)	.	8E\	.	.	.	.	.	.	.	.	.	.	.	.	.	.	.	8r	.	8r	.	8r	.	.	.	.	.	.	.	.	4e\	.	.	.	.	.
.	8r	.	8E\	.	.	.	8c\	.	.	.	8g/	.	.	.	8cc\	-szą	.	.	8g\	.	8c/	.	8cc\	.	.	.	.	.	.	.	.	.	.	.	.	8ccc\	.
=21	=21	=21	=21	=21	=21	=21	=21	=21	=21	=21	=21	=21	=21	=21	=21	=21	=21	=21	=21	=21	=21	=21	=21	=21	=21	=21	=21	=21	=21	=21	=21	=21	=21	=21	=21	=21	=21
*	*	*	*	*	*	*	*	*	*	*	*	*	*	*	*	*	*	*	*	*	*	*	*	*	*	*	*	*	*^	*	*	*	*	*	*	*	*
!	!	!	!	!	!	!	!	!	!	!	!	!	!	!	!	!	!	!	!	!	!	!	!	!	!	!	!	!	!	!	!LO:DY:rj	!	!	!	!	!	!	!
2ryy	8F\	.	4F\	.	.	.	4c\	.	.	.	4f/	.	.	.	4a/	wia-	.	.	8r	.	8r	.	8r	.	2r	.	2r	.	4a/	4f\	p	2cc/	4f\	.	(4ff\	.	(4aa\	.
.	8r	.	.	.	.	.	.	.	.	.	.	.	.	.	.	.	.	.	8f\	.	8c/	.	8a/	.	.	.	.	.	.	.	.	.	.	.	.	.	.	.
.	8C/	.	4c\ 4C\	.	.	.	4c\	.	.	.	4e/	.	.	.	4g/	-rę	.	.	8r	.	8r	.	8r	.	.	.	.	.	4g/	4c\	.	.	4e\	.	4ee\)	.	4gg\)	.
.	8r	.	.	.	.	.	.	.	.	.	.	.	.	.	.	.	.	.	8c\	.	8e/	.	8g/	.	.	.	.	.	.	.	.	.	.	.	.	.	.	.
*	*	*	*	*	*	*	*	*	*	*	*	*	*	*	*	*	*	*	*	*	*	*	*	*	*clefF4	*	*clefG2	*	*	*	*	*	*	*	*	*	*	*
=22	=22	=22	=22	=22	=22	=22	=22	=22	=22	=22	=22	=22	=22	=22	=22	=22	=22	=22	=22	=22	=22	=22	=22	=22	=22	=22	=22	=22	=22	=22	=22	=22	=22	=22	=22	=22	=22	=22
!	!	!LO:DY:rj	!	!	!	!LO:DY:rj:a	!	!	!	!LO:DY:rj:a	!	!	!	!LO:DY:rj:a	!	!	!	!LO:DY:rj:a	!	!	!	!	!	!	!	!LO:DY:rj	!	!	!	!	!	!	!	!	!	!	!	!LO:DY:rj
2ryy	4BB-/	f	4B-\ 4BB-\	.	.	f	4d\	.	.	f	4f/	.	.	f	4dd\	Wspie-	.	f	16r	.	16r	f	16r	f	4B-\ 4BB-^<\	f	4f/ 4d^/	f	4f^</	4f\	f	4dd/	4b-^\	.	4ff^\	f	4ddd^<\	f
.	.	.	.	.	.	.	.	.	.	.	.	.	.	.	.	.	.	.	16d/KL 16B-/	.	16b-/KL 16f/	.	16dd\KL 16f\|	.	.	.	.	.	.	.	.	.	.	.	.	.	.	.
.	.	.	.	.	.	.	.	.	.	.	.	.	.	.	.	.	.	.	8d/J 8B-/	.	8b-/J 8f/	.	8dd\J 8f\|	.	.	.	.	.	.	.	.	.	.	.	.	.	.	.
.	4B-\	.	4B-\	.	.	.	4c\	.	.	.	4g/	.	.	.	4ee\	-ray	.	.	16r	.	16r	.	16r	.	4B-\ 4BB-^<\	.	4e/ 4c^/	.	4g^</	4c\	.	4ee/	4cc^\	.	4gg^\	.	4eee^<\	.
.	.	.	.	.	.	.	.	.	.	.	.	.	.	.	.	.	.	.	16g/KL 16B-/	.	16cc/KL 16g/	.	16ee\KL 16g\|	.	.	.	.	.	.	.	.	.	.	.	.	.	.	.
.	.	.	.	.	.	.	.	.	.	.	.	.	.	.	.	.	.	.	8g/J 8B-/	.	8cc/J 8g/	.	8ee\J 8g\|	.	.	.	.	.	.	.	.	.	.	.	.	.	.	.
*	*	*	*	*	*	*	*	*	*	*	*	*	*	*	*	*	*	*	*	*	*	*	*	*	*	*	*	*	*v	*v	*	*	*	*	*	*	*	*
=23	=23	=23	=23	=23	=23	=23	=23	=23	=23	=23	=23	=23	=23	=23	=23	=23	=23	=23	=23	=23	=23	=23	=23	=23	=23	=23	=23	=23	=23	=23	=23	=23	=23	=23	=23	=23	=23
2ryy	8A\	.	4A\	.	.	.	4c\	.	.	.	4f/	.	.	.	(8.ff\L	wszy-	.	.	8r	.	8r	.	8r	.	4A\ 4AA\	.	4f/ 4c/	.	4f/ 4A/	.	8.ff/L	4cc\	.	4ff\	.	(8.fff\L	.
.	8r	.	.	.	.	.	.	.	.	.	.	.	.	.	.	.	.	.	8f/ 8A/	.	8cc/ 8f/	.	8ff\	.	.	.	.	.	.	.	.	.	.	.	.	.	.
.	.	.	.	.	.	.	.	.	.	.	.	.	.	.	32ee\LL	.	.	.	.	.	.	.	.	.	.	.	.	.	.	.	(32ee/LL	.	.	.	.	32eee\LL	.
.	.	.	.	.	.	.	.	.	.	.	.	.	.	.	32dd\JJJ)	.	.	.	.	.	.	.	.	.	.	.	.	.	.	.	32dd/JJJ)	.	.	.	.	32ddd\JJJ)	.
.	8A\	.	4A\	.	.	.	4c\	.	.	.	4f/	.	.	.	4cc\	-stkie	.	.	8r	.	8r	.	8r	.	4A\ 4AA\	.	4f/ 4c/	.	4f/ 4A/	.	4cc/	4cc\	.	4ff\	.	4ccc\	.
.	8r	.	.	.	.	.	.	.	.	.	.	.	.	.	.	.	.	.	8f/ 8A/	.	8cc/ 8f/	.	8cc\	.	.	.	.	.	.	.	.	.	.	.	.	.	.
*	*	*	*	*	*	*	*	*	*	*	*	*	*	*	*	*	*	*	*	*	*	*	*	*	*	*	*	*	*	*	*v	*v	*	*	*	*	*
!!LO:LB:g=original
=24	=24	=24	=24	=24	=24	=24	=24	=24	=24	=24	=24	=24	=24	=24	=24	=24	=24	=24	=24	=24	=24	=24	=24	=24	=24	=24	=24	=24	=24	=24	=24	=24	=24	=24	=24	=24
*	*	*	*	*	*	*	*2\right	*	*	*	*	*	*	*	*2\right	*	*	*	*2\right	*	*	*	*2\right	*	*	*	*	*	*	*	*	*	*	*	*	*
2ryy	8r	.	8r	.	.	.	[2d\	Wspie-	.	.	8r	.	.	.	[2dd\	Wspie-	.	.	[2d\	.	8r	.	[2dd\	.	2ryy	.	2ryy	.	2ryy	.	2ryy	.	2ryy	.	2ryy	.
.	(8D\L	.	(8D\L	wspie-	.	.	.	.	.	.	(8f#X/L	wspie-	.	.	.	.	.	.	.	.	(8f#X/L	.	.	.	.	.	.	.	.	.	.	.	.	.	.	.
.	8E\	.	8E\J)	.	.	.	.	.	.	.	8g/J)	.	.	.	.	.	.	.	.	.	8g/	.	.	.	.	.	.	.	.	.	.	.	.	.	.	.
.	8F#X\J	.	8F#X\	-ray	.	.	.	.	.	.	8a/	-ray	.	.	.	.	.	.	.	.	8a/J)	.	.	.	.	.	.	.	.	.	.	.	.	.	.	.
=25	=25	=25	=25	=25	=25	=25	=25	=25	=25	=25	=25	=25	=25	=25	=25	=25	=25	=25	=25	=25	=25	=25	=25	=25	=25	=25	=25	=25	=25	=25	=25	=25	=25	=25	=25	=25
2ryy	(4.G\)	.	4.G\	wspie-	.	.	4.d\]	.	.	.	4.b-\	wspie-	.	.	4.dd\]	.	.	.	4.d\]	.	(2b-/	.	4.dd\]	.	2ryy	.	2ryy	.	2ryy	.	2ryy	.	2ryy	.	2ryy	.
.	8F\	.	8F\	-ray	.	.	8d-X\	-ray	.	.	8b-\	-ray	.	.	8dd-X\	-ray	.	.	8d-X\	.	.	.	8dd-X\	.	.	.	.	.	.	.	.	.	.	.	.	.
=26	=26	=26	=26	=26	=26	=26	=26	=26	=26	=26	=26	=26	=26	=26	=26	=26	=26	=26	=26	=26	=26	=26	=26	=26	=26	=26	=26	=26	=26	=26	=26	=26	=26	=26	=26	=26
2ryy	8E\L)	.	(8E\L	wszy-	.	.	4.c\	Wszy-	.	.	(8g/L	wszy-	.	.	4.cc\	Wszy-	.	.	[2c\	.	8g/L)	.	(4.cc\	.	2ryy	.	2ryy	.	2ryy	.	2ryy	.	2ryy	.	2ryy	.
.	(8C\	.	8C\	.	.	.	.	.	.	.	8e/	.	.	.	.	.	.	.	.	.	(8e/	.	.	.	.	.	.	.	.	.	.	.	.	.	.	.
.	8D\	.	8D\J)	.	.	.	.	.	.	.	8f/J)	.	.	.	.	.	.	.	.	.	8f/	.	.	.	.	.	.	.	.	.	.	.	.	.	.	.
.	8E\J	.	8E\	-stkie	.	.	8c\	-stkie	.	.	8g/	-stkie	.	.	8b-\	-stkie	.	.	.	.	8g/J	.	8b-\)	.	.	.	.	.	.	.	.	.	.	.	.	.
*	*	*	*	*	*	*	*	*	*	*	*	*	*	*	*	*	*	*	*	*	*	*	*	*	*clefG2	*	*clefF4	*	*	*	*	*	*	*	*	*
=27	=27	=27	=27	=27	=27	=27	=27	=27	=27	=27	=27	=27	=27	=27	=27	=27	=27	=27	=27	=27	=27	=27	=27	=27	=27	=27	=27	=27	=27	=27	=27	=27	=27	=27	=27	=27
*	*	*	*	*	*	*	*	*	*	*	*	*	*	*	*	*	*	*	*	*	*	*	*	*	*	*	*	*	*	*	*^	*	*	*	*	*
!	!	!	!	!	!	!	!	!	!	!	!	!	!	!	!	!	!	!	!	!	!	!	!	!	!LO:TX:t=P:problem=brak zmiany klucza	!	!	!	!	!	!	!	!	!	!	!	!
2ryy	8F\)	.	4F\	do-	.	.	4c\	do-	.	.	4f/	do-	.	.	4a/	do-	.	.	8c\L]	.	8f/L)	.	8a/L	.	2r	.	(4f\ 4F\	.	2r	.	2cc/	4a\	.	4ff\	.	4aa\	.
.	8r	.	.	.	.	.	.	.	.	.	.	.	.	.	.	.	.	.	8c\J	.	8f/J	.	8a/J	.	.	.	.	.	.	.	.	.	.	.	.	.	<
.	8E\	<	4E\	-bre	.	.	4c\	-bre	.	.	4g/	-bre	.	.	4cc\	-bre	.	.	8r	<	8r	.	8r	.	.	.	4e\ 4E\	<	.	.	.	4g\	.	4gg\	.	4ccc\	.
.	8r	.	.	.	.	.	.	.	.	.	.	.	.	.	.	.	.	.	8c\	.	8g/	.	8cc\	.	.	.	.	.	.	.	.	.	.	.	.	.	.
=28	=28	=28	=28	=28	=28	=28	=28	=28	=28	=28	=28	=28	=28	=28	=28	=28	=28	=28	=28	=28	=28	=28	=28	=28	=28	=28	=28	=28	=28	=28	=28	=28	=28	=28	=28	=28	=28
2ryy	8D\	.	4D/	.	.	.	4A\	.	.	.	4a/	.	.	.	4ff\	chę-	.	.	8r	.	8r	.	8r	.	2r	.	4d\ 4D\	.	2r	.	2dd/	2f\	.	4aa\	.	4fff\	.
.	8r	.	.	.	.	.	.	.	.	.	.	.	.	.	.	.	.	.	8d\	.	8a/	.	8ff\	.	.	.	.	[	.	.	.	.	.	.	.	.	.
.	8BB-/	.	4BB-/	.	.	.	4d\	.	.	.	4b-\	.	.	.	4dd\	-ci	.	.	8r	.	8r	.	8r	.	.	.	4B-\ 4BB-\)	.	.	.	.	.	.	4bb-\	.	4ddd\	[
.	8r	.	.	.	.	.	.	.	.	.	.	.	.	.	.	.	.	.	8d\	.	8b-/	.	8dd\	.	.	.	.	.	.	.	.	.	.	.	.	.	.
=29	=29	=29	=29	=29	=29	=29	=29	=29	=29	=29	=29	=29	=29	=29	=29	=29	=29	=29	=29	=29	=29	=29	=29	=29	=29	=29	=29	=29	=29	=29	=29	=29	=29	=29	=29	=29	=29
*	*	*	*	*	*	*	*	*	*	*	*	*	*	*	*	*	*	*	*	*	*	*	*	*	*	*	*	*	*^	*	*	*	*	*	*	*	*
2ryy	8C/	.	4C/	.	.	.	4f\	.	.	.	4a/	.	.	.	4cc\	wspie-	.	.	8r	.	8r	.	8r	.	2r	.	(4c\ 4C\	.	4r	4ryy	.	4cc/	4f\	.	4aa\	.	4ccc\	.
.	8r	.	.	.	.	.	.	.	.	.	.	.	.	.	.	.	.	.	8f\	.	8a/	.	8cc\	.	.	.	.	.	.	.	.	.	.	.	.	.	.	.
.	8C#X/	.	4C#X/	.	.	.	4e\	.	.	.	4g/	.	.	.	4b-\	-ray	.	.	8r	.	8r	.	8r	.	.	.	4c#X\ 4C#X\)	.	4b-/	4g\	.	4ee/	4g\	.	4gg\	.	4bb-\	.
.	8r	[[	.	.	.	.	.	.	.	.	.	.	.	.	.	.	.	.	8e\	[	8g/	.	8b-\	.	.	.	.	.	.	.	.	.	.	.	.	.	.	.
*	*	*	*	*	*	*	*	*	*	*	*	*	*	*	*	*	*	*	*	*	*	*	*	*	*	*	*	*	*	*	*	*v	*v	*	*	*	*	*
!!LO:LB:g=original
=30	=30	=30	=30	=30	=30	=30	=30	=30	=30	=30	=30	=30	=30	=30	=30	=30	=30	=30	=30	=30	=30	=30	=30	=30	=30	=30	=30	=30	=30	=30	=30	=30	=30	=30	=30	=30	=30
*	*	*	*	*	*	*	*	*	*	*	*	*	*	*	*	*	*	*	*	*	*	*	*	*	*	*	*	*	*	*2\right	*	*	*	*	*	*2\right	*
2ryy	8D/	.	4D/	.	.	.	(8.f\L	.	.	.	4f/	.	.	.	4a/	wspie-	.	.	8r	.	8r	.	8r	.	2r	.	4d\ 4D\	.	2a/	2f\	.	2dd\ 2f\	.	2ff\	.	2aa\	.
.	8r	.	.	.	.	.	.	.	.	.	.	.	.	.	.	.	.	.	8d\	.	8f/	.	8a/	.	.	.	.	.	.	.	.	.	.	.	.	.	.
.	.	.	.	.	.	.	16d\Jk)	.	.	.	.	.	.	.	.	.	.	.	.	.	.	.	.	.	.	.	.	.	.	.	.	.	.	.	.	.	.
.	8Cn/	.	4Cn/	.	.	.	4d\	.	.	.	4f/	.	.	.	4a/	-ray	.	.	8r	.	8r	.	8r	.	.	.	4c\ 4Cn\	.	.	.	.	.	.	.	.	.	.
.	8r	.	.	.	.	.	.	.	.	.	.	.	.	.	.	.	.	.	8d\	.	8f/	.	8a/	.	.	.	.	.	.	.	.	.	.	.	.	.	.
=31	=31	=31	=31	=31	=31	=31	=31	=31	=31	=31	=31	=31	=31	=31	=31	=31	=31	=31	=31	=31	=31	=31	=31	=31	=31	=31	=31	=31	=31	=31	=31	=31	=31	=31	=31	=31	=31
*	*	*	*	*	*	*	*	*	*	*	*	*	*	*	*	*	*	*	*	*	*	*	*	*	*^	*	*	*	*	*	*	*^	*	*	*	*	*
2ryy	8BB-/	.	4BB-/	.	.	.	4d\	.	.	.	4f/	.	.	.	(8.g/L	wszy-	.	.	8r	.	8r	.	8r	.	4r	4ryy	.	4B-\ 4BB-\	.	4g/	2f\	.	4dd/	4g\	.	4ff\	.	4gg\	.
.	8r	.	.	.	.	.	.	.	.	.	.	.	.	.	.	.	.	.	8d\	.	8f/	.	8g/	.	.	.	.	.	.	.	.	.	.	.	.	.	.	.	.
.	.	.	.	.	.	.	.	.	.	.	.	.	.	.	16dd/Jk)	.	.	.	.	.	.	.	.	.	.	.	.	.	.	.	.	.	.	.	.	.	.	.	.
.	8BBn^>/	.	4BBn/	.	.	.	4f\	.	.	.	4a-X/	.	.	.	4dd\	-stkie	.	.	8r	.	8r	.	8r	.	4dd/	4f\	.	4Bn\ 4BBn\	.	4a-X/	.	.	4dd/	4a-X^\	.	4aa-X^<\	.	4ddd\	.
.	8r	.	.	.	.	.	.	.	.	.	.	.	.	.	.	.	.	.	8f^<\	.	8a-X^/	.	8dd^<\	.	.	.	.	.	.	.	.	.	.	.	.	.	.	.	.
=32	=32	=32	=32	=32	=32	=32	=32	=32	=32	=32	=32	=32	=32	=32	=32	=32	=32	=32	=32	=32	=32	=32	=32	=32	=32	=32	=32	=32	=32	=32	=32	=32	=32	=32	=32	=32	=32	=32	=32
*	*	*	*	*	*	*	*	*	*	*	*	*	*	*	*	*	*	*	*	*	*	*	*	*	*	*	*	*2\right	*	*	*	*	*	*	*	*	*	*	*
2ryy	8C/	.	4.C/	.	.	.	4.f\	.	.	.	4.an/	.	.	.	4.cc\	do-	.	.	8r	.	8r	.	8r	.	4cc/	4f\	.	[>2c\ [>2C\	.	2a/	2f\	.	4cc/	4an\	.	4aan\	.	4ccc\	.
.	8r	.	.	.	.	.	.	.	.	.	.	.	.	.	.	.	.	.	8f\|	.	8an/	.	8cc\	.	.	.	.	.	.	.	.	.	.	.	.	.	.	.	.
.	8C/	.	.	.	.	.	.	.	.	.	.	.	.	.	.	.	.	.	8r	.	8r	.	8r	.	4a/	[4f\	.	.	.	.	.	.	4cc/	4f\	.	[4ff\	.	4aa\	.
.	8r	.	8C/	.	.	.	8c\	.	.	.	8f/	.	.	.	8a\	-bre	.	.	8c\|	.	8f/	.	8a/	.	.	.	.	.	.	.	.	.	.	.	.	.	.	.	.
*	*	*	*	*	*	*	*	*	*	*	*	*	*	*	*	*	*	*	*	*	*	*	*	*	*	*	*	*	*	*v	*v	*	*	*	*	*	*	*	*
=33	=33	=33	=33	=33	=33	=33	=33	=33	=33	=33	=33	=33	=33	=33	=33	=33	=33	=33	=33	=33	=33	=33	=33	=33	=33	=33	=33	=33	=33	=33	=33	=33	=33	=33	=33	=33	=33	=33
2ryy	8C/	.	4C/	.	.	.	4c\	.	.	.	(8f/L	.	.	.	4g/	do-	.	.	2c\	.	(8f/L	.	4g/	.	4g/	8f\L]	.	2c\] 2C\]	.	2g/ 2c/	.	2cc/	2g\	.	8ff\L]	.	4gg\	.
.	8r	.	.	.	.	.	.	.	.	.	16e/L	.	.	.	.	.	.	.	.	.	16e/L	.	.	.	.	16e\L	.	.	.	.	.	.	.	.	16ee\L	.	.	.
.	.	.	.	.	.	.	.	.	.	.	16d/JJ)	.	.	.	.	.	.	.	.	.	16d/JJ	.	.	.	.	16d\JJ	.	.	.	.	.	.	.	.	16dd\JJ	.	.	.
.	8C/	.	4C/	.	.	.	4c\	.	.	.	4e/	.	.	.	4cc\	-bre	.	.	.	.	4e/	.	(4cc\	.	4cc/	4e\	.	.	.	.	.	.	.	.	4ee\	.	4ccc\	.
.	8r	.	.	.	.	.	.	.	.	.	.	.	.	.	.	.	.	.	.	.	.	.	.	.	.	.	.	.	.	.	.	.	.	.	.	.	.	.
=34	=34	=34	=34	=34	=34	=34	=34	=34	=34	=34	=34	=34	=34	=34	=34	=34	=34	=34	=34	=34	=34	=34	=34	=34	=34	=34	=34	=34	=34	=34	=34	=34	=34	=34	=34	=34	=34	=34
!	!LO:TX:t=P:problem=mixed beam	!	!	!	!	!	!	!	!	!	!	!	!	!	!	!	!	!	!	!	!	!	!	!	!	!	!	!	!	!	!	!	!	!	!	!	!	!
2ryy	8F'\L	.	4F\	.	.	.	4F/	.	.	.	4f/	.	.	.	4f/	chę-	.	.	8f'\L	.	8f/L)	.	8f'/)	.	4.f/	4.f\	.	4.F\	.	4.f/ 4.F/	.	4.f/	4.f\	.	4.ff\	.	4.ff\	.
.	8FF'/J	.	.	.	.	.	.	.	.	.	.	.	.	.	.	.	.	.	8f'\J	.	8f'/J	.	8f'/	.	.	.	.	.	.	.	.	.	.	.	.	.	.	.
.	8F'\L	.	8F\	.	.	.	8F/	.	.	.	8f/	.	.	.	8f/	-ci.	.	.	(8f\L	.	8f'/L	.	8f'/L	.	.	.	.	.	.	.	.	.	.	.	.	.	.	.
.	(16E\L	.	8r	.	.	.	8r	.	.	.	8r	.	.	.	8r	.	.	.	16e\L	.	(16e/L	.	(16e/L	.	8r	8ryy	.	8r	.	8r	.	8r	8ryy	.	8r	.	8r	.
.	16D\JJ)	.	.	.	.	.	.	.	.	.	.	.	.	.	.	.	.	.	16d\JJ)	.	16f/JJ)	.	16f/JJ)	.	.	.	.	.	.	.	.	.	.	.	.	.	.	.
*	*	*	*	*	*	*	*	*	*	*	*	*	*	*	*	*	*	*	*	*	*	*	*	*	*v	*v	*	*	*	*	*	*v	*v	*	*	*	*	*
!!LO:PB:g=original
=35!||:	=35!||:	=35!||:	=35!||:	=35!||:	=35!||:	=35!||:	=35!||:	=35!||:	=35!||:	=35!||:	=35!||:	=35!||:	=35!||:	=35!||:	=35!||:	=35!||:	=35!||:	=35!||:	=35!||:	=35!||:	=35!||:	=35!||:	=35!||:	=35!||:	=35!||:	=35!||:	=35!||:	=35!||:	=35!||:	=35!||:	=35!||:	=35!||:	=35!||:	=35!||:	=35!||:	=35!||:
!	!	!	!	!	!	!	!	!	!	!	!	!	!	!	!LO:TX:a:t=dolce	!	!	!	!	!	!	!	!	!	!	!	!	!	!	!	!	!	!	!	!	!
!	!	!	!	!	!	!	!LO:TX:a:t=Solo	!	!	!	!LO:TX:a:t=Solo	!	!	!LO:DY:a	!LO:TX:a:t=Solo	!	!	!	!	!	!	!	!	!	!	!	!	!	!	!	!	!	!	!	!	!
2ryy	8C/	.	2r	.	.	.	4c\	Kę-	Któ-	.	4e/	.	.	p	8.g\L	Kę-	Któ-	.	8c\L	.	8e/L 8G/	.	8g/L	p	2r	.	2r	.	2r	.	2r	.	2r	.	2r	.
.	8r	.	.	.	.	.	.	.	.	.	.	.	.	.	.	.	.	.	8c\J	.	8e/J 8G/	.	8g/J	.	.	.	.	.	.	.	.	.	.	.	.	.
.	.	.	.	.	.	.	.	.	.	.	.	.	.	.	16cc\Jk	.	.	.	.	.	.	.	.	.	.	.	.	.	.	.	.	.	.	.	.	.
.	8C/	.	.	.	.	.	4c\	-dy	-rzy	.	4e/	.	.	.	4cc\	-dy	-rzy	.	8r	.	8r	.	8r	.	.	.	.	.	.	.	.	.	.	.	.	.
.	8r	.	.	.	.	.	.	.	.	.	.	.	.	.	.	.	.	.	8c\	.	8e/ 8G/	.	8g/	.	.	.	.	.	.	.	.	.	.	.	.	.
=36	=36	=36	=36	=36	=36	=36	=36	=36	=36	=36	=36	=36	=36	=36	=36	=36	=36	=36	=36	=36	=36	=36	=36	=36	=36	=36	=36	=36	=36	=36	=36	=36	=36	=36	=36	=36
2ryy	8D\	.	2r	.	.	.	4.d\	Two-	iuz	.	4.f/	.	.	.	(8.cc\L	Two-	iuz	.	8r	.	8r	.	8r	.	2r	.	2r	.	2r	.	2r	.	2r	.	2r	.
.	8r	.	.	.	.	.	.	.	.	.	.	.	.	.	.	.	.	.	8d\	.	8Bn/	.	8f/ 8G/	.	.	.	.	.	.	.	.	.	.	.	.	.
.	.	.	.	.	.	.	.	.	.	.	.	.	.	.	32dd\LL	.	.	.	.	.	.	.	.	.	.	.	.	.	.	.	.	.	.	.	.	.
.	.	.	.	.	.	.	.	.	.	.	.	.	.	.	32cc\JJJ	.	.	.	.	.	.	.	.	.	.	.	.	.	.	.	.	.	.	.	.	.
.	8D\	.	.	.	.	.	.	.	.	.	.	.	.	.	8bn\)	.	.	.	8r	.	8r	.	8r	.	.	.	.	.	.	.	.	.	.	.	.	.
.	8r	.	.	.	.	.	8d\	-je	są	.	8f/	.	.	.	8a\	-je	są	.	8d\	.	8B/	.	8f/ 8G/	.	.	.	.	.	.	.	.	.	.	.	.	.
=37	=37	=37	=37	=37	=37	=37	=37	=37	=37	=37	=37	=37	=37	=37	=37	=37	=37	=37	=37	=37	=37	=37	=37	=37	=37	=37	=37	=37	=37	=37	=37	=37	=37	=37	=37	=37
*	*	*	*	*	*	*	*	*	*	*	*	*	*	*	*	*	*	*	*	*	*	*	*rep	*	*	*	*	*	*	*	*	*	*	*	*	*
2ryy	8BBn/	.	2r	.	.	.	4.Bn\	słoń-	przy	.	4.d/	.	.	.	(4g/	słoń-	przy	.	8r	.	8r	.	8r	.	2r	.	2r	.	2r	.	2r	.	2r	.	2r	.
.	8r	.	.	.	.	.	.	.	.	.	.	.	.	.	.	.	.	.	8Bn/	.	8d/	.	8f/ 8G/	.	.	.	.	.	.	.	.	.	.	.	.	.
.	.	.	.	.	.	.	.	.	.	.	.	.	.	.	8qbn/	.	.	.	.	.	.	.	.	.	.	.	.	.	.	.	.	.	.	.	.	.
.	8GG/	.	.	.	.	.	.	.	.	.	.	.	.	.	8a/)	.	.	.	8r	.	8r	.	8r	.	.	.	.	.	.	.	.	.	.	.	.	.
.	8r	.	.	.	.	.	8B\	-ce	Twym	.	8d/	.	.	.	8g/	-ce	Twym	.	8B/	.	8d/	.	8f/ 8G/	.	.	.	.	.	.	.	.	.	.	.	.	.
*	*	*	*	*	*	*	*	*	*	*	*	*	*	*	*	*	*	*	*	*	*	*	*Xrep	*	*	*	*	*	*	*	*	*	*	*	*	*
=38	=38	=38	=38	=38	=38	=38	=38	=38	=38	=38	=38	=38	=38	=38	=38	=38	=38	=38	=38	=38	=38	=38	=38	=38	=38	=38	=38	=38	=38	=38	=38	=38	=38	=38	=38	=38
2ryy	8C/	.	2r	.	.	.	4c\	świe-	tro-	.	4g/	.	.	.	4ee\	świe-	tro-	.	8r	.	8r	.	8r	.	2r	.	2r	.	2r	.	16r	.	2r	.	16r	.
.	.	.	.	.	.	.	.	.	.	.	.	.	.	.	.	.	.	.	.	.	.	.	.	.	.	.	.	.	.	.	16c'/LL	.	.	.	16cc'\LL	.
.	8r	.	.	.	.	.	.	.	.	.	.	.	.	.	.	.	.	.	8c/	.	8c/	.	8e/ 8G/	.	.	.	.	.	.	.	16e'/	.	.	.	16ee'\	.
.	.	.	.	.	.	.	.	.	.	.	.	.	.	.	.	.	.	.	.	.	.	.	.	.	.	.	.	.	.	.	16g'/JJ	.	.	.	16gg'\JJ	.
.	8C/	.	.	.	.	.	4c\	-ci	-nie	.	4e/	.	.	.	4cc\	-ci	-nie	.	8r	.	8r	.	8r	.	.	.	.	.	.	.	8cc'/	.	.	.	8ccc'\	.
.	8r	.	.	.	.	.	.	.	.	.	.	.	.	.	.	.	.	.	8c/	.	8c/	.	8e/ 8G/	.	.	.	.	.	.	.	8r	.	.	.	8r	.
=39	=39	=39	=39	=39	=39	=39	=39	=39	=39	=39	=39	=39	=39	=39	=39	=39	=39	=39	=39	=39	=39	=39	=39	=39	=39	=39	=39	=39	=39	=39	=39	=39	=39	=39	=39	=39
*	*rep	*	*	*	*	*	*	*	*	*	*	*	*	*	*	*	*	*	*rep	*	*rep	*	*rep	*	*	*	*	*	*	*	*	*	*	*	*	*
2ryy	8C/	.	4.C/	Tam	Ci	.	4.c\	Tam	Ci	.	4.g/	.	.	.	(4ee\	Tam	Ci	.	8r	.	8r	.	8r	.	2r	.	2r	.	2r	.	2r	.	2r	.	2r	.
.	8r	.	.	.	.	.	.	.	.	.	.	.	.	.	.	.	.	.	8c/	.	8c/	.	8e/ 8G/	.	.	.	.	.	.	.	.	.	.	.	.	.
.	8C/	.	.	.	.	.	.	.	.	.	.	.	.	.	8dd\)	.	.	.	8r	.	8r	.	8r	.	.	.	.	.	.	.	.	.	.	.	.	.
.	8r	.	8c\	gdzie	co	.	8c\	gdzie	co	.	8g/	.	.	.	8ee\	gdzie	co	.	8c/	.	8c/	.	8e/ 8G/	.	.	.	.	.	.	.	.	.	.	.	.	.
*	*Xrep	*	*	*	*	*	*	*	*	*	*	*	*	*	*	*	*	*	*Xrep	*	*Xrep	*	*Xrep	*	*	*	*	*	*	*	*	*	*	*	*	*
=40	=40	=40	=40	=40	=40	=40	=40	=40	=40	=40	=40	=40	=40	=40	=40	=40	=40	=40	=40	=40	=40	=40	=40	=40	=40	=40	=40	=40	=40	=40	=40	=40	=40	=40	=40	=40
2ryy	4F\	.	([4F\	ludz-	ży-	.	4.d\	ludz-	ży-	.	4a/	.	.	.	(4ff\	ludz-	ży-	.	4d\	.	4d/	.	4f/ 4A/	.	2r	.	2r	.	2r	.	2r	.	2r	.	2r	.
.	4r	.	16F\LL]	.	.	.	.	.	.	.	8f/	.	.	.	(16a\LL	.	.	.	4r	.	4r	.	4r	.	.	.	.	.	.	.	.	.	.	.	.	.
.	.	.	16D\JJ)	.	.	.	.	.	.	.	.	.	.	.	16bn\JJ))	.	.	.	.	.	.	.	.	.	.	.	.	.	.	.	.	.	.	.	.	.
.	.	.	(16E\LL	-kie	-ią	.	(16c\LL	-kie	-ią	.	(16g/LL	.	.	.	(16cc\LL	-kie	-ią	.	.	.	.	.	.	.	.	.	.	.	.	.	.	.	.	.	.	.
.	.	.	16F\JJ)	.	.	.	16A\JJ)	.	.	.	16f/JJ)	.	.	.	16dd\JJ)	.	.	.	.	.	.	.	.	.	.	.	.	.	.	.	.	.	.	.	.	.
!!LO:LB:g=original
=41	=41	=41	=41	=41	=41	=41	=41	=41	=41	=41	=41	=41	=41	=41	=41	=41	=41	=41	=41	=41	=41	=41	=41	=41	=41	=41	=41	=41	=41	=41	=41	=41	=41	=41	=41	=41
2ryy	8G\	.	4G\	ser-	do	.	4c\	.	.	.	4e/	ser-	do	.	4cc\	ser-	do	.	8r	.	8r	.	8r	.	2ryy	.	2ryy	.	2r	.	2r	.	2r	.	2r	.
.	8r	.	.	.	.	.	.	.	.	.	.	.	.	.	.	.	.	.	8c\	.	8c/	.	8e/ 8G/	.	.	.	.	.	.	.	.	.	.	.	.	.
.	8GG/	.	4GG/	-ca	tej	.	4d\	.	.	.	4d/	-ca	tej	.	4bn\	-ca	tej	.	8r	.	8r	.	8r	.	.	.	.	.	.	.	.	.	.	.	.	.
.	8r	.	.	.	.	.	.	.	.	.	.	.	.	.	.	.	.	.	8Bn\	.	8d/	.	8f/ 8G/	.	.	.	.	.	.	.	.	.	.	.	.	.
=42	=42	=42	=42	=42	=42	=42	=42	=42	=42	=42	=42	=42	=42	=42	=42	=42	=42	=42	=42	=42	=42	=42	=42	=42	=42	=42	=42	=42	=42	=42	=42	=42	=42	=42	=42	=42
2ryy	8C/	.	4C/	bi-	chwi-	.	4Bn\	.	.	.	4f/	bi-	chwi-	.	4dd\	bi-	chwi-	.	8r	.	8r	.	8r	.	2ryy	.	2ryy	.	2ryy	.	4r	.	2r	.	4r	.
.	8r	.	.	.	.	.	.	.	.	.	.	.	.	.	.	.	.	.	8d\L	.	8Bn/L	.	8f/L 8G/	.	.	.	.	.	.	.	.	.	.	.	.	.
.	8C/	.	8C/	-ią	-li	.	8c\	.	.	.	8e/	-ią	-li	.	8cc\	-ią	-li	.	8c\J	.	8c/J	.	8e/J 8G/	.	.	.	.	.	.	.	16r	.	.	.	16r	.
.	.	.	.	.	.	.	.	.	.	.	.	.	.	.	.	.	.	.	.	.	.	.	.	.	.	.	.	.	.	.	(16cc/LL	.	.	.	(16ccc\LL	.
.	8r	.	8r	.	.	.	8r	.	.	.	8r	.	.	.	8r	.	.	.	8ryy	.	8ryy	.	8ryy	.	.	.	.	.	.	.	16bn/	.	.	.	16bbn\	.
.	.	.	.	.	.	.	.	.	.	.	.	.	.	.	.	.	.	.	.	.	.	.	.	.	.	.	.	.	.	.	16cc/JJ)	.	.	.	16ccc\JJ)	.
=43	=43	=43	=43	=43	=43	=43	=43	=43	=43	=43	=43	=43	=43	=43	=43	=43	=43	=43	=43	=43	=43	=43	=43	=43	=43	=43	=43	=43	=43	=43	=43	=43	=43	=43	=43	=43
!	!	!	!	!	!	!LO:DY:rj:a	!	!	!	!LO:DY:rj:a	!	!	!	!LO:DY:rj:a	!LO:TX:a:t=tutti	!	!	!LO:DY:rj:a	!	!	!	!	!	!	!	!	!	!	!	!	!	!	!	!	!	!
2ryy	2ryy	.	4BB-/	Niech	Co	f	4d\	Niech	Co	f	4f/	Niech	Co	f	4dd\	Niech	Co	f	2ryy	.	2ryy	.	2ryy	.	2ryy	.	2ryy	.	2ryy	.	2ryy	.	2ryy	.	4ddd\	.
.	.	.	4B-\	cię	po	.	4c\	cię	po	.	4g/	cię	po	.	4ee\	cię	po	.	.	.	.	.	.	.	.	.	.	.	.	.	.	.	.	.	4eee\	.
=44	=44	=44	=44	=44	=44	=44	=44	=44	=44	=44	=44	=44	=44	=44	=44	=44	=44	=44	=44	=44	=44	=44	=44	=44	=44	=44	=44	=44	=44	=44	=44	=44	=44	=44	=44	=44
2ryy	2ryy	.	4A\	zna-	na-	.	4c\	zna-	na-	.	4f/	zna-	na-	.	(8.ff\L	zna-	na-	.	2ryy	.	2ryy	.	2ryy	.	2ryy	.	2ryy	.	2ryy	.	2ryy	.	2ryy	.	2ryy	.
.	.	.	.	.	.	.	.	.	.	.	.	.	.	.	32ee\LL	.	.	.	.	.	.	.	.	.	.	.	.	.	.	.	.	.	.	.	.	.
.	.	.	.	.	.	.	.	.	.	.	.	.	.	.	32dd\JJJ)	.	.	.	.	.	.	.	.	.	.	.	.	.	.	.	.	.	.	.	.	.
.	.	.	4A\	-ią	-szym	.	4c\	-ią	-szym	.	4f/	-ią	-szym	.	4cc\	-ią	-szym	.	.	.	.	.	.	.	.	.	.	.	.	.	.	.	.	.	.	.
=45	=45	=45	=45	=45	=45	=45	=45	=45	=45	=45	=45	=45	=45	=45	=45	=45	=45	=45	=45	=45	=45	=45	=45	=45	=45	=45	=45	=45	=45	=45	=45	=45	=45	=45	=45	=45
2ryy	2ryy	.	8r	.	.	.	[2d\	Two-	przyi-	.	8r	.	.	.	[2dd\	Two-	przyi-	.	2ryy	.	2ryy	.	2ryy	.	2ryy	.	2ryy	.	2ryy	.	2ryy	.	2ryy	.	2ryy	.
.	.	.	8D\L	Two-	przyi-	.	.	.	.	.	(8f#X/L	Two-	przyi-	.	.	.	.	.	.	.	.	.	.	.	.	.	.	.	.	.	.	.	.	.	.	.
.	.	.	8E\J	.	.	.	.	.	.	.	8g/J)	.	.	.	.	.	.	.	.	.	.	.	.	.	.	.	.	.	.	.	.	.	.	.	.	.
.	.	.	8F#X\	-ie	-dą	.	.	.	.	.	8a/	-je	-dą	.	.	.	.	.	.	.	.	.	.	.	.	.	.	.	.	.	.	.	.	.	.	.
=46	=46	=46	=46	=46	=46	=46	=46	=46	=46	=46	=46	=46	=46	=46	=46	=46	=46	=46	=46	=46	=46	=46	=46	=46	=46	=46	=46	=46	=46	=46	=46	=46	=46	=46	=46	=46
2ryy	2ryy	.	4.G\	dzie-	zgo-	.	4.d\]	.	.	.	4.b-/	dzie-	zgo-	.	4.dd\]	.	.	.	2ryy	.	2ryy	.	2ryy	.	2ryy	.	2ryy	.	2ryy	.	2ryy	.	2ryy	.	2ryy	.
.	.	.	8Fn\	-ci	-nie	.	8d-X\	-ie	-dą	.	8b-/	-ci	-nie	.	8dd-X\	-ie	-dą	.	.	.	.	.	.	.	.	.	.	.	.	.	.	.	.	.	.	.
!!LO:PB:g=original
=47	=47	=47	=47	=47	=47	=47	=47	=47	=47	=47	=47	=47	=47	=47	=47	=47	=47	=47	=47	=47	=47	=47	=47	=47	=47	=47	=47	=47	=47	=47	=47	=47	=47	=47	=47	=47
2ryy	2ryy	.	(8E\L	dzie-	zgo-	.	4.c\	.	.	.	(8g/L	.	.	.	4.cc\	dzie-	zgo-	.	2ryy	.	2ryy	.	2ryy	.	2ryy	.	2ryy	.	2ryy	.	2ryy	.	2ryy	.	2ryy	.
.	.	.	8C\	.	.	.	.	.	.	.	8e/	.	.	.	.	.	.	.	.	.	.	.	.	.	.	.	.	.	.	.	.	.	.	.	.	.
.	.	.	8D\J)	.	.	.	.	.	.	.	8f/J)	.	.	.	.	.	.	.	.	.	.	.	.	.	.	.	.	.	.	.	.	.	.	.	.	.
.	.	.	8E\	-ci	-nie	.	8c\	.	.	.	8g/	.	.	.	8b-\	-ci.	-nie	.	.	.	.	.	.	.	.	.	.	.	.	.	.	.	.	.	.	.
=48	=48	=48	=48	=48	=48	=48	=48	=48	=48	=48	=48	=48	=48	=48	=48	=48	=48	=48	=48	=48	=48	=48	=48	=48	=48	=48	=48	=48	=48	=48	=48	=48	=48	=48	=48	=48
2ryy	2ryy	.	4F\	.	.	.	4c\	.	.	.	4f/	.	.	.	4a\	Niech	Spraw	.	2ryy	.	2ryy	.	2ryy	.	2ryy	.	2ryy	.	2ryy	.	2ryy	.	2ryy	.	2ryy	.
.	.	.	4E\	.	.	.	4c\	.	.	.	4g/	.	.	.	4cc\	jak	by	.	.	.	.	.	.	.	.	.	.	.	.	.	.	.	.	.	.	.
=49	=49	=49	=49	=49	=49	=49	=49	=49	=49	=49	=49	=49	=49	=49	=49	=49	=49	=49	=49	=49	=49	=49	=49	=49	=49	=49	=49	=49	=49	=49	=49	=49	=49	=49	=49	=49
2ryy	2ryy	.	4D\	.	.	.	4A\	.	.	.	4a/	.	.	.	4ff\	bra-	Bo-	.	2ryy	.	2ryy	.	2ryy	.	2ryy	.	2ryy	.	2ryy	.	2ryy	.	2ryy	.	2ryy	.
.	.	.	4BB-/	.	.	.	4d\	.	.	.	4b-/	.	.	.	4dd\	-cia	-że	.	.	.	.	.	.	.	.	.	.	.	.	.	.	.	.	.	.	.
=50	=50	=50	=50	=50	=50	=50	=50	=50	=50	=50	=50	=50	=50	=50	=50	=50	=50	=50	=50	=50	=50	=50	=50	=50	=50	=50	=50	=50	=50	=50	=50	=50	=50	=50	=50	=50
2ryy	2ryy	.	4C/	.	.	.	4f\	.	.	.	4a/	.	.	.	4cc\	w zgo-	w To-	.	2ryy	.	2ryy	.	2ryy	.	2ryy	.	2ryy	.	2ryy	.	2ryy	.	2ryy	.	2ryy	.
.	.	.	4C#X/	.	.	.	4e\	.	.	.	4g/	.	.	.	4b-\	-dzie	-bie	.	.	.	.	.	.	.	.	.	.	.	.	.	.	.	.	.	.	.
=51	=51	=51	=51	=51	=51	=51	=51	=51	=51	=51	=51	=51	=51	=51	=51	=51	=51	=51	=51	=51	=51	=51	=51	=51	=51	=51	=51	=51	=51	=51	=51	=51	=51	=51	=51	=51
2ryy	2ryy	.	4D/	.	.	.	(8.f\L	.	.	.	4f/	.	.	.	4a\	ży-	ży-	.	2ryy	.	2ryy	.	2ryy	.	2ryy	.	2ryy	.	2ryy	.	2ryy	.	2ryy	.	2ryy	.
.	.	.	.	.	.	.	16d\Jk)	.	.	.	.	.	.	.	.	.	.	.	.	.	.	.	.	.	.	.	.	.	.	.	.	.	.	.	.	.
.	.	.	4Cn/	.	.	.	4d\	.	.	.	4f/	.	.	.	4a\	-ią	-li	.	.	.	.	.	.	.	.	.	.	.	.	.	.	.	.	.	.	.
=52	=52	=52	=52	=52	=52	=52	=52	=52	=52	=52	=52	=52	=52	=52	=52	=52	=52	=52	=52	=52	=52	=52	=52	=52	=52	=52	=52	=52	=52	=52	=52	=52	=52	=52	=52	=52
2ryy	2ryy	.	4BB-/	.	.	.	4d\	.	.	.	4f/	.	.	.	(8.g/L	niech	Spraw	.	2ryy	.	2ryy	.	2ryy	.	2ryy	.	2ryy	.	2ryy	.	2ryy	.	2ryy	.	2ryy	.
.	.	.	.	.	.	.	.	.	.	.	.	.	.	.	16dd/Jk)	.	by	.	.	.	.	.	.	.	.	.	.	.	.	.	.	.	.	.	.	.
.	.	.	4BBn/	.	.	.	4f\	.	.	.	4a-X/	.	.	.	4dd\	jak	Bo-	.	.	.	.	.	.	.	.	.	.	.	.	.	.	.	.	.	.	.
=53	=53	=53	=53	=53	=53	=53	=53	=53	=53	=53	=53	=53	=53	=53	=53	=53	=53	=53	=53	=53	=53	=53	=53	=53	=53	=53	=53	=53	=53	=53	=53	=53	=53	=53	=53	=53
2ryy	2ryy	.	4.C/	.	.	.	4.f\	.	.	.	4.an/	.	.	.	4.cc\	bra-	-że	.	2ryy	.	2ryy	.	2ryy	.	2ryy	.	2ryy	.	2ryy	.	2ryy	.	2ryy	.	2ryy	.
.	.	.	8C/	.	.	.	8c\	.	.	.	8f/	.	.	.	8a\	-cia	w	.	.	.	.	.	.	.	.	.	.	.	.	.	.	.	.	.	.	.
=54	=54	=54	=54	=54	=54	=54	=54	=54	=54	=54	=54	=54	=54	=54	=54	=54	=54	=54	=54	=54	=54	=54	=54	=54	=54	=54	=54	=54	=54	=54	=54	=54	=54	=54	=54	=54
2ryy	2ryy	.	4C/	.	.	.	4c\	.	.	.	(8f/L	.	.	.	4g/	w zgo-	To-	.	2ryy	.	2ryy	.	2ryy	.	2ryy	.	2ryy	.	2ryy	.	2ryy	.	2ryy	.	2ryy	.
.	.	.	.	.	.	.	.	.	.	.	16e/L	.	.	.	.	.	.	.	.	.	.	.	.	.	.	.	.	.	.	.	.	.	.	.	.	.
.	.	.	.	.	.	.	.	.	.	.	16d/JJ)	.	.	.	.	.	.	.	.	.	.	.	.	.	.	.	.	.	.	.	.	.	.	.	.	.
.	.	.	4C/	.	.	.	4c\	.	.	.	4e/	.	.	.	4cc\	-dzie	-bie	.	.	.	.	.	.	.	.	.	.	.	.	.	.	.	.	.	.	.
=55	=55	=55	=55	=55	=55	=55	=55	=55	=55	=55	=55	=55	=55	=55	=55	=55	=55	=55	=55	=55	=55	=55	=55	=55	=55	=55	=55	=55	=55	=55	=55	=55	=55	=55	=55	=55
2ryy	2ryy	.	4F\	.	.	.	4F/	.	.	.	4f/	.	.	.	4f/	ży-	ży-	.	2ryy	.	2ryy	.	2ryy	.	2ryy	.	2ryy	.	2ryy	.	2ryy	.	2ryy	.	2ryy	.
.	.	.	8F\	.	.	.	8F/	.	.	.	8f/	.	.	.	8f/	-ią.	-li.	.	.	.	.	.	.	.	.	.	.	.	.	.	.	.	.	.	.	.
.	.	.	8r	.	.	.	8r	.	.	.	8r	.	.	.	8r	.	.	.	.	.	.	.	.	.	.	.	.	.	.	.	.	.	.	.	.	.
!!LO:LB:g=original
=56:|!	=56:|!	=56:|!	=56:|!	=56:|!	=56:|!	=56:|!	=56:|!	=56:|!	=56:|!	=56:|!	=56:|!	=56:|!	=56:|!	=56:|!	=56:|!	=56:|!	=56:|!	=56:|!	=56:|!	=56:|!	=56:|!	=56:|!	=56:|!	=56:|!	=56:|!	=56:|!	=56:|!	=56:|!	=56:|!	=56:|!	=56:|!	=56:|!	=56:|!	=56:|!	=56:|!	=56:|!
*	*	*	*	*	*	*	*	*	*	*	*	*	*	*	*	*	*	*	*	*	*	*	*	*	*^	*	*^	*	*	*	*^	*	*	*	*	*
2ryy	4.F\	.	2r	.	.	.	2r	.	.	.	2r	.	.	.	2r	.	.	.	4.f\ 4.A\	.	4.f/	.	4.f/	.	4.f/	4.f\	.	[2f/	4.F\	.	4.f/ 4.A/	.	[<4a/	2f\	p	[4ff\	.	[4ff\	.
.	.	.	.	.	.	.	.	.	.	.	.	.	.	.	.	.	.	.	.	.	.	.	.	.	.	.	.	.	.	.	.	.	16a/LL]	.	.	16ff\LL]	.	16ff\LL]	.
.	.	.	.	.	.	.	.	.	.	.	.	.	.	.	.	.	.	.	.	.	.	.	.	.	.	.	.	.	.	p	.	.	(16a/	.	.	(16ff\	.	(16ff\	p
.	8r	.	.	.	.	.	.	.	.	.	.	.	.	.	.	.	.	.	8r	.	8r	.	8r	.	8r	8ryy	.	.	8rFF	.	8r	.	16b-/	.	.	16gg\	.	16gg\	.
.	.	.	.	.	.	.	.	.	.	.	.	.	.	.	.	.	.	.	.	.	.	.	.	.	.	.	.	.	.	.	.	.	16cc/JJ	.	.	(16aa\JJ)	.	(16aa\JJ)	.
*	*	*	*	*	*	*	*	*	*	*	*	*	*	*	*	*	*	*	*	*	*	*	*	*	*v	*v	*	*	*	*	*	*	*	*	*	*	*	*	*
=57	=57	=57	=57	=57	=57	=57	=57	=57	=57	=57	=57	=57	=57	=57	=57	=57	=57	=57	=57	=57	=57	=57	=57	=57	=57	=57	=57	=57	=57	=57	=57	=57	=57	=57	=57	=57	=57	=57
*	*	*	*	*	*	*	*	*	*	*	*	*	*	*	*	*	*	*	*	*	*	*	*	*	*	*	*	*	*	*^	*	*	*	*	*^	*	*	*
!	!	!	!	!	!	!	!	!	!	!	!	!	!	!	!	!	!	!	!	!	!	!	!	!	!	!	!	!	!	!LO:TX:a:t=Io.	!	!LO:DY:rj:a	!	!	!	!LO:TX:b:t=col Flauto	!	!LO:HP:a	!	!
2ryy	2r	.	2r	.	.	.	2r	.	.	.	2r	.	.	.	2r	.	.	.	2r	.	2r	.	2r	.	2r	.	2f/_	2r	.	[2f/	2r	p	4dd/)	2f\	<	4.bb-\yy	(2ff\	<	4.bb-\	<
.	.	.	.	.	.	.	.	.	.	.	.	.	.	.	.	.	.	.	.	.	.	.	.	.	.	.	.	.	.	.	.	.	8dd-X/L	.	[ >	.	.	.	.	.
!	!	!	!	!	!	!	!	!	!	!	!	!	!	!	!	!	!	!	!	!	!	!	!	!	!	!	!	!	!	!	!	!	!	!	!	!	!	!LO:HP:a	!	!
.	.	.	.	.	.	.	.	.	.	.	.	.	.	.	.	.	.	.	.	.	.	.	.	.	.	.	.	.	.	.	.	.	8cc/J	.	]	8aa\)yy	.	[ >	8aa\)	[ > ]]
=58	=58	=58	=58	=58	=58	=58	=58	=58	=58	=58	=58	=58	=58	=58	=58	=58	=58	=58	=58	=58	=58	=58	=58	=58	=58	=58	=58	=58	=58	=58	=58	=58	=58	=58	=58	=58	=58	=58	=58	=58
2ryy	2r	.	2r	.	.	.	2r	.	.	.	2r	.	.	.	2r	.	.	.	2r	.	2r	.	2r	.	2r	.	2f/]	2r	.	2f/]	2r	.	2cc/	2b-\	.	(8.aa^<\Lyy	2ee\)	]	(8.aa^<\L	.
.	.	.	.	.	.	.	.	.	.	.	.	.	.	.	.	.	.	.	.	.	.	.	.	.	.	.	.	.	.	.	.	.	.	.	.	16gg\Jk)yy	.	.	16gg\Jk)	.
.	.	.	.	.	.	.	.	.	.	.	.	.	.	.	.	.	.	.	.	.	.	.	.	.	.	.	.	.	.	.	.	.	.	.	.	(8.aa^<\Lyy	.	.	(8.aa^<\L	.
.	.	.	.	.	.	.	.	.	.	.	.	.	.	.	.	.	.	.	.	.	.	.	.	.	.	.	.	.	.	.	.	.	.	.	.	16gg\Jk)yy	.	.	16gg\Jk)	.
*	*	*	*	*	*	*	*	*	*	*	*	*	*	*	*	*	*	*	*	*	*	*	*	*	*	*	*	*	*	*v	*v	*	*	*	*	*v	*v	*	*	*
=59	=59	=59	=59	=59	=59	=59	=59	=59	=59	=59	=59	=59	=59	=59	=59	=59	=59	=59	=59	=59	=59	=59	=59	=59	=59	=59	=59	=59	=59	=59	=59	=59	=59	=59	=59	=59	=59	=59
*	*^	*	*	*	*	*	*	*	*	*	*	*	*	*	*	*	*	*	*	*	*	*	*	*	*	*	*	*	*	*	*	*	*	*	*	*	*	*
2ryy	4r	2r	.	2r	.	.	.	2r	.	.	.	2r	.	.	.	2r	.	.	.	4r	.	4r	.	4r	.	2r	.	4.f/	2r	.	4.f/	.	4.cc/	4.a\	.	4.ff\	.	4.ff\	.
.	16r	.	.	.	.	.	.	.	.	.	.	.	.	.	.	.	.	.	.	16r	.	16r	.	16r	.	.	.	.	.	.	.	.	.	.	.	.	.	.	.
!	!	!	!	!	!	!	!	!	!	!	!	!	!	!	!	!	!	!	!	!	!	!	!	!	!LO:DY:a	!	!	!	!	!	!	!	!	!	!	!	!	!	!
.	(16F/LL	.	.	.	.	.	.	.	.	.	.	.	.	.	.	.	.	.	.	(16F/LL	.	(16A/LL	.	[8.f/	pp	.	.	.	.	.	.	.	.	.	.	.	.	.	.
.	16G/	.	.	.	.	.	.	.	.	.	.	.	.	.	.	.	.	.	.	16G/	.	16B-/	.	.	.	.	.	8r	.	.	8r	.	8r	8r	.	8r	.	8r	.
.	16A/JJ	.	.	.	.	.	.	.	.	.	.	.	.	.	.	.	.	.	.	16A/JJ)	.	16c/JJ)	.	.	.	.	.	.	.	.	.	.	.	.	.	.	.	.	.
*	*	*	*	*	*	*	*	*	*	*	*	*	*	*	*	*	*	*	*	*	*	*	*	*	*	*	*	*v	*v	*	*	*	*v	*v	*	*	*	*	*
=60	=60	=60	=60	=60	=60	=60	=60	=60	=60	=60	=60	=60	=60	=60	=60	=60	=60	=60	=60	=60	=60	=60	=60	=60	=60	=60	=60	=60	=60	=60	=60	=60	=60	=60	=60	=60	=60
!	!	!	!	!	!	!	!	!	!	!	!	!	!	!	!	!	!	!	!	!	!	!	!	!LO:TX:a:t=e uno poco rallent[ando]&colon;	!	!	!	!	!	!	!	!	!	!	!	!	!
2ryy	4.B-/)	2r	.	2r	.	.	.	2r	.	.	.	2r	.	.	.	2r	.	.	.	4.B-/	.	(4d/	.	2f/_>	.	2r	.	2r	.	2r	.	2r	.	2r	.	2r	.
.	.	.	.	.	.	.	.	.	.	.	.	.	.	.	.	.	.	.	.	.	.	8d-X/L	.	.	.	.	.	.	.	.	.	.	.	.	.	.	.
.	8A/	.	.	.	.	.	.	.	.	.	.	.	.	.	.	.	.	.	.	8A/	.	8c/J)	.	.	.	.	.	.	.	.	.	.	.	.	.	.	.
=61	=61	=61	=61	=61	=61	=61	=61	=61	=61	=61	=61	=61	=61	=61	=61	=61	=61	=61	=61	=61	=61	=61	=61	=61	=61	=61	=61	=61	=61	=61	=61	=61	=61	=61	=61	=61	=61
*	*	*2\right	*	*	*	*	*	*	*	*	*	*	*	*	*	*	*	*	*	*	*	*	*	*	*	*	*	*	*	*	*	*	*	*	*	*	*
2ryy	4.G/	2C\	pp	2r	.	.	.	2r	.	.	.	2r	.	.	.	2r	.	.	.	2G/	.	2B-/	.	(4f/]	.	2r	.	2r	.	2r	.	2r	.	2r	.	2r	.
.	.	.	.	.	.	.	.	.	.	.	.	.	.	.	.	.	.	.	.	.	.	.	.	16f/LL	.	.	.	.	.	.	.	.	.	.	.	.	.
.	.	.	.	.	.	.	.	.	.	.	.	.	.	.	.	.	.	.	.	.	.	.	.	16e/	.	.	.	.	.	.	.	.	.	.	.	.	.
.	8C/	.	.	.	.	.	.	.	.	.	.	.	.	.	.	.	.	.	.	.	.	.	.	16d/	.	.	.	.	.	.	.	.	.	.	.	.	.
.	.	.	.	.	.	.	.	.	.	.	.	.	.	.	.	.	.	.	.	.	.	.	.	16e/JJ)	.	.	.	.	.	.	.	.	.	.	.	.	.
*	*v	*v	*	*	*	*	*	*	*	*	*	*	*	*	*	*	*	*	*	*	*	*	*	*	*	*	*	*	*	*	*	*	*	*	*	*	*
=62	=62	=62	=62	=62	=62	=62	=62	=62	=62	=62	=62	=62	=62	=62	=62	=62	=62	=62	=62	=62	=62	=62	=62	=62	=62	=62	=62	=62	=62	=62	=62	=62	=62	=62	=62	=62
2ryy	[2F\	.	2r	.	.	.	2r	.	.	.	2r	.	.	.	2r	.	.	.	[2c/ [2F/	.	2A/	.	[2f/ [2A/	.	4r	.	4r	.	4r	.	4r	.	4r	.	4r	.
.	.	.	.	.	.	.	.	.	.	.	.	.	.	.	.	.	.	.	.	.	.	.	.	.	8r	.	8r	.	8r	.	8r	.	8r	.	8r	.
.	.	.	.	.	.	.	.	.	.	.	.	.	.	.	.	.	.	.	.	.	.	.	.	.	(8a/ (8f/	.	(8c\ 8A\	.	8f/ 8F/	.	(8cc\ 8a\	.	(8aa\	.	(8ccc\	.
=63	=63	=63	=63	=63	=63	=63	=63	=63	=63	=63	=63	=63	=63	=63	=63	=63	=63	=63	=63	=63	=63	=63	=63	=63	=63	=63	=63	=63	=63	=63	=63	=63	=63	=63	=63	=63
2ryy	2F\_	.	2r	.	.	.	2r	.	.	.	2r	.	.	.	2r	.	.	.	2c/_ 2F/_	.	2A/	.	2f/_ 2A/_	.	4.cc/ 4.f/))	.	4.A\ 4.F\	.	4.f/ 4.F/	.	4.a/ 4.f/)	.	4.ff\)	.	4.fff\)	.
.	.	.	.	.	.	.	.	.	.	.	.	.	.	.	.	.	.	.	.	.	.	.	.	.	8a/ 8f/	.	8c\ 8A\)	.	8f/ 8F/	.	(8cc/ 8a/	.	(8aa\	.	(8ccc\	.
=64	=64	=64	=64	=64	=64	=64	=64	=64	=64	=64	=64	=64	=64	=64	=64	=64	=64	=64	=64	=64	=64	=64	=64	=64	=64	=64	=64	=64	=64	=64	=64	=64	=64	=64	=64	=64
*	*	*	*	*	*	*	*	*	*	*	*	*	*	*	*	*	*	*	*	*	*	*	*	*	*rep	*	*rep	*	*rep	*	*rep	*	*rep	*	*rep	*
2ryy	2F\_	.	2r	.	.	.	2r	.	.	.	2r	.	.	.	2r	.	.	.	2c/_ 2F/_	.	[<2A/	.	2f/_ 2A/_	.	4.cc/ 4.f/	.	(4.A\ 4.F\	.	4.f/ 4.F/	.	4.a/ 4.f/)	.	4.ff\)	.	4.fff\)	.
.	.	.	.	.	.	.	.	.	.	.	.	.	.	.	.	.	.	.	.	.	.	.	.	.	8a/ 8f/	.	8c\ 8A\)	.	8f/ 8F/	.	(8cc/ 8a/	.	(8aa\	.	(8ccc\	.
*	*	*	*	*	*	*	*	*	*	*	*	*	*	*	*	*	*	*	*	*	*	*	*	*	*Xrep	*	*Xrep	*	*Xrep	*	*Xrep	*	*Xrep	*	*Xrep	*
!!LO:PB:g=original
=65	=65	=65	=65	=65	=65	=65	=65	=65	=65	=65	=65	=65	=65	=65	=65	=65	=65	=65	=65	=65	=65	=65	=65	=65	=65	=65	=65	=65	=65	=65	=65	=65	=65	=65	=65	=65
2ryy	4F\]	.	2r;	.	.	.	2r;	.	.	.	2r;	.	.	.	2r;	.	.	.	4c/] 4F/]	.	4f/ 4A/>]	.	4f/] 4A/]	.	4cc/ 4f/	.	4A\ 4F\	.	4f/ 4F/	.	4a/ 4f/)	.	4aa\)	.	4fff\)	.
.	4r;	.	.	.	.	.	.	.	.	.	.	.	.	.	.	.	.	.	4r;	.	4r;	.	4r;	.	4r;	.	4r;	.	4r	.	4r;	.	4r;	.	4r;	.
==	==	==	==	==	==	==	==	==	==	==	==	==	==	==	==	==	==	==	==	==	==	==	==	==	==	==	==	==	==	==	==	==	==	==	==	==
*-	*-	*-	*-	*-	*-	*-	*-	*-	*-	*-	*-	*-	*-	*-	*-	*-	*-	*-	*-	*-	*-	*-	*-	*-	*-	*-	*-	*-	*-	*-	*-	*-	*-	*-	*-	*-
!!!system-decoration: [(s1,s2,s3,s4,s5,s6[(s7,s8)]s9[(s10,s11,s12,s13)]s14,s15)]
!!!RDF**kern: > = above
!!!RDF**kern: < = below
!!!RDF**kern: | = vertical stroke
!!!EED: Leszek Kubiak
!!!EEV: 2021-04-26
!!!ENC: Krzysztof Stępień
!!!END: 2021-04-09
